fbudimannn/F1_PREDICTION/data/historical/training_features.csv
year,round,driver,team,driver_elo_prior,teammate_quali_gap,gap_to_pole,constructor_pace_prior,prev_quali_position,avg_quali_position_last3,quali_position,grid_position,finish_position,is_dnf,teammate_race_gap,target_quali_rank,target_race_rank
2022,1,LEC,Ferrari,1500.0,-0.12899999999999068,0.0,0.5,11.0,11.0,1,1,1,0,-1.0,1,1
2022,1,SAI,Ferrari,1500.0,0.12899999999999068,0.12899999999999068,0.5,11.0,11.0,3,3,2,0,1.0,3,2
2022,1,VER,Red Bull Racing,1500.0,-0.2400000000000091,0.12299999999999045,0.5,11.0,11.0,2,2,19,1,1.0,2,19
2022,1,PER,Red Bull Racing,1500.0,0.2400000000000091,0.36299999999999955,0.5,11.0,11.0,4,4,18,1,-1.0,4,18
2022,1,HAM,Mercedes,1500.0,-0.9779999999999944,0.6799999999999926,0.5,11.0,11.0,5,5,3,0,-1.0,5,3
2022,1,RUS,Mercedes,1500.0,0.9779999999999944,1.657999999999987,0.5,11.0,11.0,9,9,4,0,1.0,9,4
2022,1,BOT,Alfa Romeo,1500.0,-1.983000000000004,1.0019999999999953,0.5,11.0,11.0,6,6,6,0,-4.0,6,6
2022,1,ZHO,Alfa Romeo,1500.0,1.983000000000004,2.9849999999999994,0.5,11.0,11.0,15,15,10,0,4.0,15,10
2022,1,MAG,Haas F1 Team,1500.0,-0.18999999999999773,1.25,0.5,11.0,11.0,7,7,5,0,-6.0,7,5
2022,1,MSC,Haas F1 Team,1500.0,0.18999999999999773,1.4399999999999977,0.5,11.0,11.0,12,12,11,0,6.0,12,11
2022,1,ALO,Alpine,1500.0,0.4129999999999967,1.6369999999999862,0.5,11.0,11.0,8,8,9,0,2.0,8,9
2022,1,OCO,Alpine,1500.0,-0.4129999999999967,1.2239999999999895,0.5,11.0,11.0,11,11,7,0,-2.0,11,7
2022,1,GAS,AlphaTauri,1500.0,-0.41200000000000614,1.779999999999987,0.5,11.0,11.0,10,10,20,1,12.0,10,20
2022,1,TSU,AlphaTauri,1500.0,0.41200000000000614,2.191999999999993,0.5,11.0,11.0,16,16,8,0,-12.0,16,8
2022,1,NOR,McLaren,1500.0,-0.9369999999999976,1.4499999999999886,0.5,11.0,11.0,13,13,15,0,1.0,13,15
2022,1,RIC,McLaren,1500.0,0.9369999999999976,2.3869999999999862,0.5,11.0,11.0,18,18,14,0,-1.0,18,14
2022,1,ALB,Williams,1500.0,-0.9699999999999989,2.1059999999999945,0.5,11.0,11.0,14,14,13,0,-3.0,14,13
2022,1,LAT,Williams,1500.0,0.9699999999999989,3.0759999999999934,0.5,11.0,11.0,20,20,16,0,3.0,20,16
2022,1,HUL,Aston Martin,1500.0,-0.25499999999999545,2.218999999999994,0.5,11.0,11.0,17,17,17,0,5.0,17,17
2022,1,STR,Aston Martin,1500.0,0.25499999999999545,2.4739999999999895,0.5,11.0,11.0,19,19,12,0,-5.0,19,12
2022,2,PER,Red Bull Racing,1509.0,-0.2609999999999957,0.0,0.12299999999999045,4.0,4.0,1,1,4,0,3.0,1,4
2022,2,VER,Red Bull Racing,1512.0,0.2609999999999957,0.2609999999999957,0.12299999999999045,2.0,2.0,4,4,1,0,-3.0,4,1
2022,2,LEC,Ferrari,1513.5,-0.1770000000000067,0.024999999999991473,0.0,1.0,1.0,2,2,2,0,-1.0,2,2
2022,2,SAI,Ferrari,1510.5,0.1770000000000067,0.20199999999999818,0.0,3.0,3.0,3,3,3,0,1.0,3,3
2022,2,OCO,Alpine,1498.5,-0.07900000000000773,0.867999999999995,1.2239999999999895,11.0,11.0,5,5,6,0,-10.0,5,6
2022,2,ALO,Alpine,1503.0,0.07900000000000773,0.9470000000000027,1.2239999999999895,8.0,8.0,7,7,16,1,10.0,7,16
2022,2,RUS,Mercedes,1501.5,-1.2390000000000043,0.9039999999999964,0.6799999999999926,9.0,9.0,6,6,5,0,-5.0,6,5
2022,2,HAM,Mercedes,1507.5,1.2390000000000043,2.1430000000000007,0.6799999999999926,5.0,5.0,16,15,10,0,5.0,16,10
2022,2,BOT,Alfa Romeo,1506.0,-0.6359999999999957,0.9830000000000041,1.0019999999999953,6.0,6.0,8,8,15,1,4.0,8,15
2022,2,ZHO,Alfa Romeo,1492.5,0.6359999999999957,1.6189999999999998,1.0019999999999953,15.0,15.0,13,12,11,0,-4.0,13,11
2022,2,GAS,AlphaTauri,1500.0,0.0,1.054000000000002,1.779999999999987,10.0,10.0,9,9,8,0,-11.0,9,8
2022,2,MAG,Haas F1 Team,1504.5,-0.33200000000000784,1.387999999999991,1.25,7.0,7.0,10,10,9,0,-90.0,10,9
2022,2,MSC,Haas F1 Team,1497.0,0.33200000000000784,1.7199999999999989,1.25,12.0,12.0,14,20,99,1,90.0,14,99
2022,2,NOR,McLaren,1495.5,-0.12199999999999989,1.4509999999999934,1.4499999999999886,13.0,13.0,11,11,7,0,-10.0,11,7
2022,2,RIC,McLaren,1488.0,0.12199999999999989,1.5729999999999933,1.4499999999999886,18.0,18.0,12,14,17,1,10.0,12,17
2022,2,STR,Aston Martin,1486.5,0.465999999999994,2.8089999999999975,2.218999999999994,19.0,19.0,15,13,13,0,1.0,15,13
2022,2,HUL,Aston Martin,1489.5,-0.465999999999994,2.3430000000000035,2.218999999999994,17.0,17.0,18,17,12,0,-1.0,18,12
2022,2,ALB,Williams,1494.0,-1.3249999999999886,2.2920000000000016,2.1059999999999945,14.0,14.0,17,16,14,1,-4.0,17,14
2022,2,LAT,Williams,1485.0,1.3249999999999886,3.6169999999999902,2.1059999999999945,20.0,20.0,19,18,18,1,4.0,19,18
2022,3,LEC,Ferrari,1525.5,-1.5400000000000063,0.0,0.012499999999995737,2.0,1.5,1,1,1,0,-19.0,1,1
2022,3,SAI,Ferrari,1521.0,1.5400000000000063,1.5400000000000063,0.012499999999995737,3.0,3.0,9,9,20,1,19.0,9,20
2022,3,VER,Red Bull Racing,1521.0,-0.08599999999999852,0.28600000000000136,0.061499999999995225,4.0,3.0,2,2,18,1,16.0,2,18
2022,3,PER,Red Bull Racing,1522.5,0.08599999999999852,0.3719999999999999,0.061499999999995225,1.0,2.5,3,3,2,0,-16.0,3,2
2022,3,NOR,McLaren,1494.0,-0.3289999999999935,0.835000000000008,1.450499999999991,11.0,12.0,4,4,5,0,-1.0,4,5
2022,3,RIC,McLaren,1485.0,0.3289999999999935,1.1640000000000015,1.450499999999991,12.0,15.0,7,7,6,0,1.0,7,6
2022,3,HAM,Mercedes,1498.5,-0.10800000000000409,0.9570000000000078,0.7919999999999945,16.0,10.5,5,5,4,0,1.0,5,4
2022,3,RUS,Mercedes,1507.5,0.10800000000000409,1.065000000000012,0.7919999999999945,6.0,7.5,6,6,3,0,-1.0,6,3
2022,3,OCO,Alpine,1506.0,0.24600000000000932,1.193000000000012,1.0459999999999923,5.0,8.0,8,8,7,0,-10.0,8,7
2022,3,ALO,Alpine,1507.5,-0.24600000000000932,0.9470000000000027,1.0459999999999923,7.0,7.5,10,10,17,0,10.0,10,17
2022,3,GAS,AlphaTauri,1501.5,-0.1980000000000075,1.358000000000004,1.4169999999999945,9.0,9.5,11,11,9,0,-6.0,11,9
2022,3,TSU,AlphaTauri,1491.0,0.1980000000000075,1.5560000000000116,1.4169999999999945,16.0,16.0,13,13,15,0,6.0,13,15
2022,3,BOT,Alfa Romeo,1509.0,-0.7450000000000045,1.5420000000000016,0.9924999999999997,8.0,7.0,12,12,8,0,-3.0,12,8
2022,3,ZHO,Alfa Romeo,1488.0,0.7450000000000045,2.287000000000006,0.9924999999999997,13.0,14.0,14,14,11,0,3.0,14,11
2022,3,MSC,Haas F1 Team,1491.0,0.21099999999999852,2.5970000000000084,1.3189999999999955,14.0,13.0,15,15,13,0,-1.0,15,13
2022,3,MAG,Haas F1 Team,1504.5,-0.21099999999999852,2.38600000000001,1.3189999999999955,10.0,8.5,17,16,14,0,1.0,17,14
2022,3,ALB,Williams,1483.5,-1.2369999999999948,2.26700000000001,2.198999999999998,17.0,15.5,16,20,10,0,-6.0,16,10
2022,3,LAT,Williams,1471.5,1.2369999999999948,3.504000000000005,2.198999999999998,19.0,19.5,19,18,16,0,6.0,19,16
2022,3,VET,Aston Martin,1500.0,0.0,3.281000000000006,2.280999999999999,11.0,11.0,18,17,19,1,7.0,18,19
2022,4,VER,Red Bull Racing,1533.0,-1.8090000000000117,0.0,0.13633333333333061,2.0,2.6666666666666665,1,1,1,0,-1.0,1,1
2022,4,PER,Red Bull Racing,1533.0,1.8090000000000117,1.8090000000000117,0.13633333333333061,3.0,2.6666666666666665,7,3,2,0,1.0,7,2
2022,4,LEC,Ferrari,1539.0,9.788000000000011,0.7790000000000106,0.008333333333330492,1.0,1.3333333333333333,2,2,6,0,-14.0,2,6
2022,4,SAI,Ferrari,1522.5,-9.788000000000011,-9.009,0.008333333333330492,9.0,5.0,10,4,20,1,14.0,10,20
2022,4,NOR,McLaren,1503.0,-0.6110000000000042,1.132000000000005,1.24533333333333,4.0,9.333333333333334,3,5,3,0,-15.0,3,3
2022,4,RIC,McLaren,1489.5,0.6110000000000042,1.7430000000000092,1.24533333333333,7.0,12.333333333333334,6,6,18,0,15.0,6,18
2022,4,MAG,Haas F1 Team,1494.0,8.248000000000005,1.1650000000000063,1.674666666666667,17.0,11.333333333333334,4,8,9,0,-8.0,4,9
2022,4,MSC,Haas F1 Team,1483.5,-8.248000000000005,-7.082999999999998,1.674666666666667,15.0,13.666666666666666,12,10,17,0,8.0,12,17
2022,4,ALO,Alpine,1507.5,6.864000000000004,1.203000000000003,1.0129999999999957,10.0,8.333333333333334,5,9,19,1,5.0,5,19
2022,4,OCO,Alpine,1509.0,-6.864000000000004,-5.661000000000001,1.0129999999999957,8.0,8.0,19,16,14,0,-5.0,19,14
2022,4,BOT,Alfa Romeo,1506.0,9.004999999999995,2.4399999999999977,1.175666666666667,12.0,8.666666666666666,8,7,5,0,-10.0,8,5
2022,4,ZHO,Alfa Romeo,1482.0,-9.004999999999995,-6.564999999999998,1.175666666666667,14.0,14.0,14,0,15,0,10.0,14,15
2022,4,VET,Aston Martin,1488.0,2.942999999999998,3.0630000000000024,2.6143333333333345,18.0,18.0,9,13,8,0,-2.0,9,8
2022,4,STR,Aston Martin,1479.0,-2.942999999999998,0.12000000000000455,2.6143333333333345,15.0,17.0,15,15,10,0,2.0,15,10
2022,4,RUS,Mercedes,1513.5,-0.3810000000000002,-7.24199999999999,0.846999999999999,6.0,7.0,11,11,4,0,-9.0,11,4
2022,4,HAM,Mercedes,1506.0,0.3810000000000002,-6.86099999999999,0.846999999999999,5.0,8.666666666666666,13,14,13,0,9.0,13,13
2022,4,TSU,AlphaTauri,1486.5,-0.25799999999999557,-7.5249999999999915,1.397333333333331,13.0,14.5,16,12,7,0,-5.0,16,7
2022,4,GAS,AlphaTauri,1500.0,0.25799999999999557,-7.266999999999996,1.397333333333331,11.0,10.0,17,17,12,0,5.0,17,12
2022,4,LAT,Williams,1458.0,0.0,-6.027999999999992,2.221666666666669,19.0,19.333333333333332,18,19,16,0,5.0,18,16
2022,5,LEC,Ferrari,1551.0,-0.18999999999999773,0.0,-2.9946666666666695,2.0,1.6666666666666667,1,1,2,0,-1.0,1,2
2022,5,SAI,Ferrari,1522.5,0.18999999999999773,0.18999999999999773,-2.9946666666666695,10.0,7.333333333333333,2,2,3,0,1.0,2,3
2022,5,VER,Red Bull Racing,1546.5,-0.045000000000001705,0.19499999999999318,0.09533333333333378,1.0,2.3333333333333335,3,3,1,0,-3.0,3,1
2022,5,PER,Red Bull Racing,1537.5,0.045000000000001705,0.23999999999999488,0.09533333333333378,7.0,3.6666666666666665,4,4,4,0,3.0,4,4
2022,5,BOT,Alfa Romeo,1509.0,-1.5450000000000017,0.6789999999999878,-1.346666666666664,8.0,9.333333333333334,5,5,7,0,-13.0,5,7
2022,5,ZHO,Alfa Romeo,1476.0,1.5450000000000017,2.2239999999999895,-1.346666666666664,14.0,13.666666666666666,17,17,20,1,13.0,17,20
2022,5,HAM,Mercedes,1501.5,-0.5480000000000018,0.8289999999999935,-1.793666666666662,13.0,11.333333333333334,6,6,6,0,1.0,6,6
2022,5,RUS,Mercedes,1512.0,0.5480000000000018,1.3769999999999953,-1.793666666666662,11.0,7.666666666666667,12,12,5,0,-1.0,12,5
2022,5,GAS,AlphaTauri,1489.5,-0.24200000000000443,0.8939999999999912,-1.7043333333333284,17.0,12.333333333333334,7,7,18,1,6.0,7,18
2022,5,TSU,AlphaTauri,1477.5,0.24200000000000443,1.1359999999999957,-1.7043333333333284,16.0,15.0,9,9,12,0,-6.0,9,12
2022,5,NOR,McLaren,1513.5,-0.5600000000000023,0.9539999999999935,1.1393333333333355,3.0,6.0,8,8,19,1,6.0,8,19
2022,5,RIC,McLaren,1495.5,0.5600000000000023,1.5139999999999958,1.1393333333333355,6.0,8.333333333333334,14,14,13,0,-6.0,14,13
2022,5,STR,Aston Martin,1471.5,0.4620000000000033,1.8799999999999955,1.9146666666666714,15.0,16.333333333333332,10,0,10,0,-7.0,10,10
2022,5,VET,Aston Martin,1489.5,-0.4620000000000033,1.4179999999999922,1.9146666666666714,9.0,13.5,13,0,17,1,7.0,13,17
2022,5,ALO,Alpine,1515.0,0.0,1.36399999999999,-1.2820000000000011,5.0,7.333333333333333,11,11,11,0,3.0,11,11
2022,5,MSC,Haas F1 Team,1480.5,-0.5519999999999925,1.6269999999999953,-1.102999999999999,12.0,13.666666666666666,15,15,15,0,-1.0,15,15
2022,5,MAG,Haas F1 Team,1503.0,0.5519999999999925,2.178999999999988,-1.102999999999999,4.0,10.333333333333334,16,16,16,1,1.0,16,16
2022,5,ALB,Williams,1474.5,-0.0589999999999975,2.469999999999999,-0.48966666666666,16.0,15.666666666666666,18,18,9,0,-5.0,18,9
2022,5,LAT,Williams,1446.0,0.0589999999999975,2.5289999999999964,-0.48966666666666,18.0,18.666666666666668,19,19,14,0,5.0,19,14
2022,6,LEC,Ferrari,1564.5,-0.4159999999999968,0.0,-3.003,1.0,1.3333333333333333,1,1,20,1,16.0,1,20
2022,6,SAI,Ferrari,1534.5,0.4159999999999968,0.4159999999999968,-3.003,2.0,7.0,3,3,4,0,-16.0,3,4
2022,6,VER,Red Bull Racing,1557.0,-0.3470000000000084,0.3229999999999933,0.16033333333333152,3.0,2.0,2,2,1,0,-1.0,2,1
2022,6,PER,Red Bull Racing,1546.5,0.3470000000000084,0.6700000000000017,0.16033333333333152,4.0,4.666666666666667,5,5,2,0,1.0,5,2
2022,6,RUS,Mercedes,1509.0,-0.11899999999999977,0.6430000000000007,-1.8186666666666629,12.0,9.666666666666666,4,4,3,0,-2.0,4,3
2022,6,HAM,Mercedes,1507.5,0.11899999999999977,0.7620000000000005,-1.8186666666666629,6.0,8.0,6,6,5,0,2.0,6,5
2022,6,BOT,Alfa Romeo,1516.5,-1.48599999999999,0.8580000000000041,-1.4480000000000028,5.0,8.333333333333334,7,7,6,0,-13.0,7,6
2022,6,ZHO,Alfa Romeo,1465.5,1.48599999999999,2.343999999999994,-1.4480000000000028,17.0,15.0,15,15,19,1,13.0,15,19
2022,6,MAG,Haas F1 Team,1494.0,-0.6859999999999928,0.9320000000000022,-1.023333333333331,16.0,12.333333333333334,8,8,17,0,3.0,8,17
2022,6,MSC,Haas F1 Team,1473.0,0.6859999999999928,1.617999999999995,-1.023333333333331,15.0,14.0,10,10,14,0,-3.0,10,14
2022,6,RIC,McLaren,1489.5,-0.1740000000000066,1.546999999999997,0.9736666666666688,14.0,9.0,9,9,12,0,4.0,9,12
2022,6,NOR,McLaren,1516.5,0.1740000000000066,1.7210000000000036,0.9736666666666688,8.0,5.0,11,11,8,0,-4.0,11,8
2022,6,OCO,Alpine,1495.5,-0.40500000000000114,1.8880000000000052,-1.1166666666666696,19.0,10.666666666666666,12,12,7,0,-2.0,12,7
2022,6,ALO,Alpine,1513.5,0.40500000000000114,2.2930000000000064,-1.1166666666666696,11.0,8.666666666666666,17,20,9,0,2.0,17,9
2022,6,TSU,AlphaTauri,1479.0,-0.2220000000000084,1.8889999999999958,-1.7576666666666654,9.0,12.666666666666666,13,13,10,0,-3.0,13,10
2022,6,GAS,AlphaTauri,1494.0,0.2220000000000084,2.111000000000004,-1.7576666666666654,7.0,11.666666666666666,14,14,13,0,3.0,14,13
2022,6,VET,Aston Martin,1485.0,-0.46400000000001285,2.2039999999999935,1.6063333333333343,13.0,13.333333333333334,16,16,11,0,-4.0,16,11
2022,6,STR,Aston Martin,1471.5,0.46400000000001285,2.6680000000000064,1.6063333333333343,10.0,13.333333333333334,18,17,15,0,4.0,18,15
2022,6,ALB,Williams,1462.5,-0.27000000000001023,2.894999999999996,-0.4303333333333275,18.0,17.0,19,18,18,0,2.0,19,18
2022,6,LAT,Williams,1432.5,0.27000000000001023,3.1650000000000063,-0.4303333333333275,19.0,18.666666666666668,20,19,16,0,-2.0,20,16
2022,7,LEC,Ferrari,1578.0,-0.22499999999999432,0.0,-3.003,1.0,1.3333333333333333,1,1,4,0,2.0,1,4
2022,7,SAI,Ferrari,1545.0,0.22499999999999432,0.22499999999999432,-3.003,3.0,5.0,2,2,2,0,-2.0,2,2
2022,7,PER,Red Bull Racing,1554.0,-0.03699999999999193,0.2530000000000001,0.17266666666666217,5.0,5.333333333333333,3,3,1,0,-2.0,3,1
2022,7,VER,Red Bull Racing,1569.0,0.03699999999999193,0.28999999999999204,0.17266666666666217,2.0,2.0,4,4,3,0,2.0,4,3
2022,7,NOR,McLaren,1515.0,-1.1149999999999949,0.472999999999999,1.2109999999999985,11.0,7.333333333333333,5,5,6,0,-7.0,5,6
2022,7,RIC,McLaren,1491.0,1.1149999999999949,1.5879999999999939,1.2109999999999985,9.0,9.666666666666666,14,14,13,0,7.0,14,13
2022,7,RUS,Mercedes,1518.0,-0.4480000000000075,0.73599999999999,-1.923333333333332,4.0,9.0,6,6,5,0,-3.0,6,5
2022,7,HAM,Mercedes,1513.5,0.4480000000000075,1.1839999999999975,-1.923333333333332,6.0,8.333333333333334,8,8,8,0,3.0,8,8
2022,7,ALO,Alpine,1503.0,-0.7999999999999972,0.8709999999999951,-0.803000000000002,17.0,11.0,7,7,7,0,-5.0,7,7
2022,7,OCO,Alpine,1492.5,0.7999999999999972,1.6709999999999923,-0.803000000000002,12.0,13.0,10,10,12,0,5.0,10,12
2022,7,VET,Aston Martin,1476.0,-0.945999999999998,1.3559999999999945,1.24733333333333,16.0,12.666666666666666,9,9,10,0,-4.0,9,10
2022,7,STR,Aston Martin,1459.5,0.945999999999998,2.3019999999999925,1.24733333333333,18.0,14.333333333333334,18,18,14,0,4.0,18,14
2022,7,TSU,AlphaTauri,1474.5,-0.8629999999999995,1.4209999999999923,-1.5806666666666682,13.0,12.666666666666666,11,11,17,0,6.0,11,17
2022,7,GAS,AlphaTauri,1488.0,0.8629999999999995,2.283999999999992,-1.5806666666666682,14.0,12.666666666666666,17,17,11,0,-6.0,17,11
2022,7,BOT,Alfa Romeo,1521.0,-2.6969999999999885,1.5330000000000013,-1.676000000000002,7.0,6.666666666666667,12,12,9,0,-7.0,12,9
2022,7,ZHO,Alfa Romeo,1458.0,2.6969999999999885,4.22999999999999,-1.676000000000002,15.0,15.333333333333334,20,20,16,0,7.0,20,16
2022,7,MAG,Haas F1 Team,1497.0,-0.1599999999999966,1.5450000000000017,-1.5080000000000002,8.0,9.333333333333334,13,13,20,1,1.0,13,20
2022,7,MSC,Haas F1 Team,1473.0,0.1599999999999966,1.7049999999999983,-1.5080000000000002,10.0,12.333333333333334,15,15,19,1,-1.0,15,19
2022,7,ALB,Williams,1449.0,-0.7920000000000016,2.2349999999999994,-0.2209999999999989,19.0,17.666666666666668,16,16,18,1,3.0,16,18
2022,7,LAT,Williams,1417.5,0.7920000000000016,3.027000000000001,-0.2209999999999989,20.0,19.0,19,19,15,0,-3.0,19,15
2022,8,LEC,Ferrari,1591.5,-0.4549999999999983,0.0,0.0,1.0,1.0,1,1,19,1,-1.0,1,19
2022,8,SAI,Ferrari,1557.0,0.4549999999999983,0.4549999999999983,0.0,2.0,2.3333333333333335,4,4,20,1,1.0,4,20
2022,8,PER,Red Bull Racing,1564.5,-0.06499999999999773,0.2820000000000107,0.2569999999999955,3.0,4.0,2,2,2,0,1.0,2,2
2022,8,VER,Red Bull Racing,1578.0,0.06499999999999773,0.3470000000000084,0.2569999999999955,4.0,3.0,3,3,1,0,-1.0,3,1
2022,8,RUS,Mercedes,1524.0,-0.2120000000000033,1.3530000000000086,0.7359999999999948,6.0,7.333333333333333,5,5,3,0,-1.0,5,3
2022,8,HAM,Mercedes,1516.5,0.2120000000000033,1.565000000000012,0.7359999999999948,8.0,6.666666666666667,7,7,4,0,1.0,7,4
2022,8,GAS,AlphaTauri,1477.5,-0.21099999999999852,1.4860000000000042,1.4013333333333264,17.0,12.666666666666666,6,6,5,0,-8.0,6,5
2022,8,TSU,AlphaTauri,1473.0,0.21099999999999852,1.6970000000000027,1.4013333333333264,11.0,11.0,8,8,13,0,8.0,8,13
2022,8,VET,Aston Martin,1477.5,-2.280000000000001,1.7319999999999993,1.6593333333333267,9.0,12.666666666666666,9,9,6,0,-10.0,9,6
2022,8,STR,Aston Martin,1447.5,2.280000000000001,4.0120000000000005,1.6593333333333267,18.0,15.333333333333334,19,19,16,1,10.0,19,16
2022,8,ALO,Alpine,1507.5,-0.41199999999999193,1.8140000000000072,1.37433333333333,7.0,11.666666666666666,10,10,7,0,-3.0,10,7
2022,8,OCO,Alpine,1492.5,0.41199999999999193,2.225999999999999,1.37433333333333,10.0,13.666666666666666,13,13,10,0,3.0,13,10
2022,8,NOR,McLaren,1522.5,-0.17600000000000193,2.0390000000000015,0.9913333333333298,5.0,8.0,11,11,9,0,1.0,11,9
2022,8,RIC,McLaren,1485.0,0.17600000000000193,2.2150000000000034,0.9913333333333298,14.0,12.333333333333334,12,12,8,0,-1.0,12,8
2022,8,ZHO,Alfa Romeo,1443.0,-0.6539999999999964,2.4310000000000116,1.023333333333331,20.0,17.333333333333332,14,14,18,1,7.0,14,18
2022,8,BOT,Alfa Romeo,1518.0,0.6539999999999964,3.085000000000008,1.023333333333331,12.0,8.0,15,15,11,0,-7.0,15,11
2022,8,MAG,Haas F1 Team,1492.5,-1.132000000000005,3.284000000000006,1.3679999999999997,13.0,12.333333333333334,16,16,17,1,3.0,16,17
2022,8,MSC,Haas F1 Team,1465.5,1.132000000000005,4.416000000000011,1.3679999999999997,15.0,13.333333333333334,20,20,14,0,-3.0,20,14
2022,8,ALB,Williams,1440.0,-0.6480000000000103,3.3599999999999994,2.5333333333333314,16.0,17.666666666666668,17,17,12,0,-3.0,17,12
2022,8,LAT,Williams,1404.0,0.6480000000000103,4.00800000000001,2.5333333333333314,19.0,19.333333333333332,18,18,15,0,3.0,18,15
2022,9,VER,Red Bull Racing,1588.5,-11.827999999999989,0.0,0.28600000000000136,3.0,3.0,1,1,1,0,-19.0,1,1
2022,9,PER,Red Bull Racing,1576.5,11.827999999999989,11.827999999999989,0.28600000000000136,2.0,3.3333333333333335,13,13,20,1,19.0,13,20
2022,9,ALO,Alpine,1507.5,-1.5849999999999937,0.644999999999996,1.5243333333333358,10.0,11.333333333333334,2,2,9,0,3.0,2,9
2022,9,OCO,Alpine,1488.0,1.5849999999999937,2.2299999999999898,1.5243333333333358,13.0,11.666666666666666,7,7,6,0,-3.0,7,6
2022,9,SAI,Ferrari,1566.0,-10.911999999999992,0.796999999999997,0.0,4.0,3.0,3,3,2,0,-3.0,3,2
2022,9,LEC,Ferrari,1605.0,10.911999999999992,11.708999999999989,0.0,1.0,1.0,15,19,5,0,3.0,15,5
2022,9,HAM,Mercedes,1521.0,-0.6659999999999968,1.5919999999999987,0.9106666666666664,7.0,7.0,4,4,3,0,-1.0,4,3
2022,9,RUS,Mercedes,1531.5,0.6659999999999968,2.2579999999999956,0.9106666666666664,5.0,5.0,8,8,4,0,1.0,8,4
2022,9,MAG,Haas F1 Team,1483.5,-0.3960000000000008,1.6609999999999872,1.9203333333333366,16.0,12.333333333333334,5,5,17,0,-2.0,5,17
2022,9,MSC,Haas F1 Team,1450.5,0.3960000000000008,2.056999999999988,1.9203333333333366,20.0,15.0,6,6,19,1,2.0,6,19
2022,9,RIC,McLaren,1482.0,-10.317000000000007,2.4499999999999886,1.352999999999999,12.0,11.666666666666666,9,9,11,0,-4.0,9,11
2022,9,NOR,McLaren,1521.0,10.317000000000007,12.766999999999996,1.352999999999999,11.0,9.0,14,14,15,0,4.0,14,15
2022,9,ZHO,Alfa Romeo,1437.0,-2.7579999999999956,2.7309999999999945,1.607333333333339,14.0,16.333333333333332,10,10,8,0,1.0,10,8
2022,9,BOT,Alfa Romeo,1510.5,2.7579999999999956,5.48899999999999,1.607333333333339,15.0,11.333333333333334,11,11,7,0,-1.0,11,7
2022,9,ALB,Williams,1429.5,-8.801999999999992,5.5589999999999975,2.8299999999999983,17.0,17.333333333333332,12,12,13,0,-3.0,12,13
2022,9,LAT,Williams,1392.0,8.801999999999992,14.36099999999999,2.8299999999999983,18.0,19.0,19,18,16,0,3.0,19,16
2022,9,GAS,AlphaTauri,1483.5,-2.0829999999999984,13.192999999999998,1.598666666666664,6.0,12.333333333333334,16,15,14,0,-4.0,16,14
2022,9,TSU,AlphaTauri,1476.0,2.0829999999999984,15.275999999999996,1.598666666666664,8.0,10.666666666666666,20,20,18,1,4.0,20,18
2022,9,VET,Aston Martin,1479.0,-1.019999999999996,13.212999999999994,1.7639999999999958,9.0,11.333333333333334,17,16,12,0,2.0,17,12
2022,9,STR,Aston Martin,1434.0,1.019999999999996,14.23299999999999,1.7639999999999958,19.0,18.333333333333332,18,17,10,0,-2.0,18,10
2022,10,SAI,Ferrari,1576.5,-0.3149999999999977,0.0,0.26566666666666566,3.0,3.0,1,1,1,0,-3.0,1,1
2022,10,LEC,Ferrari,1597.5,0.3149999999999977,0.3149999999999977,0.26566666666666566,15.0,5.666666666666667,3,3,4,0,3.0,3,4
2022,10,VER,Red Bull Racing,1602.0,-0.5609999999999928,0.07200000000000273,0.17833333333333692,1.0,2.6666666666666665,2,2,7,0,5.0,2,7
2022,10,PER,Red Bull Racing,1572.0,0.5609999999999928,0.6329999999999956,0.17833333333333692,13.0,6.0,4,4,2,0,-5.0,4,2
2022,10,HAM,Mercedes,1530.0,-0.16599999999999682,1.0120000000000005,1.2269999999999992,4.0,6.333333333333333,5,5,3,0,-15.0,5,3
2022,10,RUS,Mercedes,1534.5,0.16599999999999682,1.1779999999999973,1.2269999999999992,8.0,6.333333333333333,8,8,18,1,15.0,8,18
2022,10,NOR,McLaren,1515.0,-2.271000000000001,1.100999999999999,1.6539999999999964,14.0,10.0,6,6,6,0,-7.0,6,6
2022,10,RIC,McLaren,1483.5,2.271000000000001,3.372,1.6539999999999964,9.0,11.666666666666666,14,14,13,0,7.0,14,13
2022,10,ALO,Alpine,1519.5,-3.073999999999998,1.1329999999999956,1.1099999999999994,2.0,6.333333333333333,7,7,5,0,-10.0,7,5
2022,10,OCO,Alpine,1492.5,3.073999999999998,4.206999999999994,1.1099999999999994,7.0,10.0,15,15,15,1,10.0,15,15
2022,10,ZHO,Alfa Romeo,1437.0,-1.5130000000000052,1.73599999999999,2.231666666666669,10.0,14.666666666666666,9,9,19,1,2.0,9,19
2022,10,BOT,Alfa Romeo,1509.0,1.5130000000000052,3.2489999999999952,2.231666666666669,11.0,12.666666666666666,12,12,17,1,-2.0,12,17
2022,10,LAT,Williams,1378.5,21.016999999999996,22.111999999999995,3.7179999999999986,19.0,18.666666666666668,10,10,12,0,-8.0,10,12
2022,10,ALB,Williams,1426.5,-21.016999999999996,1.0949999999999989,3.7179999999999986,12.0,15.0,16,16,20,1,8.0,16,20
2022,10,GAS,AlphaTauri,1474.5,-0.6090000000000089,2.718999999999994,5.3666666666666645,16.0,13.0,11,11,16,1,2.0,11,16
2022,10,TSU,AlphaTauri,1461.0,0.6090000000000089,3.328000000000003,5.3666666666666645,20.0,13.0,13,13,14,0,-2.0,13,14
2022,10,MAG,Haas F1 Team,1491.0,-0.5489999999999924,1.176000000000002,2.1633333333333318,5.0,11.333333333333334,17,17,10,0,2.0,17,10
2022,10,MSC,Haas F1 Team,1456.5,0.5489999999999924,1.7249999999999943,2.1633333333333318,6.0,13.666666666666666,19,19,8,0,-2.0,19,8
2022,10,VET,Aston Martin,1468.5,-0.76400000000001,1.6829999999999927,5.433666666666663,17.0,11.666666666666666,18,18,9,0,-2.0,18,9
2022,10,STR,Aston Martin,1422.0,0.76400000000001,2.4470000000000027,5.433666666666663,18.0,18.333333333333332,20,20,11,0,2.0,20,11
2022,11,VER,Red Bull Racing,1614.0,-1.4740000000000038,0.0,0.11800000000000448,2.0,2.0,1,1,2,0,-18.0,1,2
2022,11,PER,Red Bull Racing,1581.0,1.4740000000000038,1.4740000000000038,0.11800000000000448,4.0,6.333333333333333,13,5,20,1,18.0,13,20
2022,11,LEC,Ferrari,1608.0,-0.05299999999999727,0.029000000000010573,0.26566666666666566,3.0,6.333333333333333,2,2,1,0,-17.0,2,1
2022,11,SAI,Ferrari,1590.0,0.05299999999999727,0.08200000000000784,0.26566666666666566,1.0,2.6666666666666665,3,3,18,1,17.0,3,18
2022,11,RUS,Mercedes,1537.5,-7.719999999999999,0.44700000000000273,1.3190000000000026,8.0,7.0,4,4,4,0,1.0,4,4
2022,11,HAM,Mercedes,1537.5,7.719999999999999,8.167000000000002,1.3190000000000026,5.0,5.333333333333333,9,8,3,0,-1.0,9,3
2022,11,OCO,Alpine,1485.0,-0.37699999999999534,0.7420000000000044,1.197333333333333,15.0,11.666666666666666,5,6,5,0,-5.0,5,5
2022,11,ALO,Alpine,1524.0,0.37699999999999534,1.1189999999999998,1.197333333333333,7.0,6.333333333333333,8,19,10,0,5.0,8,10
2022,11,MAG,Haas F1 Team,1480.5,-0.1319999999999908,0.8950000000000102,2.0403333333333316,17.0,12.666666666666666,6,7,8,0,2.0,6,8
2022,11,MSC,Haas F1 Team,1443.0,0.1319999999999908,1.027000000000001,2.0403333333333316,19.0,15.0,7,9,6,0,-2.0,7,6
2022,11,GAS,AlphaTauri,1473.0,-0.6910000000000025,1.176000000000002,5.799333333333332,11.0,11.0,10,14,15,0,-1.0,10,15
2022,11,TSU,AlphaTauri,1456.5,0.6910000000000025,1.8670000000000044,5.799333333333332,13.0,13.666666666666666,14,16,16,0,1.0,14,16
2022,11,ALB,Williams,1417.5,-0.7729999999999961,1.2460000000000093,3.3379999999999987,16.0,15.0,11,15,12,0,-7.0,11,12
2022,11,LAT,Williams,1378.5,0.7729999999999961,2.0190000000000055,3.3379999999999987,10.0,15.666666666666666,19,17,19,1,7.0,19,19
2022,11,BOT,Alfa Romeo,1506.0,-0.5819999999999936,1.335000000000008,2.299333333333332,12.0,12.666666666666666,12,0,11,0,-3.0,12,11
2022,11,ZHO,Alfa Romeo,1438.5,0.5819999999999936,1.9170000000000016,2.299333333333332,9.0,11.0,18,13,14,0,3.0,18,14
2022,11,NOR,McLaren,1521.0,19.233999999999995,20.863,1.8633333333333297,6.0,10.333333333333334,15,10,7,0,-2.0,15,7
2022,11,RIC,McLaren,1477.5,-19.233999999999995,1.6290000000000049,1.8633333333333297,14.0,11.666666666666666,16,11,9,0,2.0,16,9
2022,11,STR,Aston Martin,1407.0,-0.2360000000000042,1.8629999999999995,5.542666666666662,20.0,19.0,17,12,13,0,-4.0,17,13
2022,11,VET,Aston Martin,1456.5,0.2360000000000042,2.0990000000000038,5.542666666666662,18.0,14.666666666666666,20,18,17,0,4.0,20,17
2022,12,LEC,Ferrari,1620.0,-0.20900000000000318,0.0,0.2753333333333359,2.0,6.666666666666667,1,1,19,1,14.0,1,19
2022,12,SAI,Ferrari,1600.5,0.20900000000000318,0.20900000000000318,0.2753333333333359,3.0,2.3333333333333335,9,19,5,0,-14.0,9,5
2022,12,VER,Red Bull Racing,1627.5,-0.15899999999999181,0.30400000000000205,0.02400000000000091,1.0,1.3333333333333333,2,2,1,0,-3.0,2,1
2022,12,PER,Red Bull Racing,1576.5,0.15899999999999181,0.46299999999999386,0.02400000000000091,13.0,10.0,3,3,4,0,3.0,3,4
2022,12,HAM,Mercedes,1539.0,-0.36599999999999966,0.8930000000000007,1.0170000000000006,9.0,6.0,4,4,2,0,-1.0,4,2
2022,12,RUS,Mercedes,1546.5,0.36599999999999966,1.2590000000000003,1.0170000000000006,4.0,6.666666666666667,6,6,3,0,1.0,6,3
2022,12,NOR,McLaren,1513.5,-0.8900000000000006,1.1599999999999966,1.7266666666666641,15.0,11.666666666666666,5,5,7,0,-2.0,5,7
2022,12,RIC,McLaren,1468.5,0.8900000000000006,2.049999999999997,1.7266666666666641,16.0,13.0,11,9,9,0,2.0,11,9
2022,12,ALO,Alpine,1527.0,-0.4959999999999951,1.6800000000000068,0.8399999999999986,8.0,5.666666666666667,7,7,6,0,-2.0,7,6
2022,12,OCO,Alpine,1492.5,0.4959999999999951,2.176000000000002,0.8399999999999986,5.0,9.0,12,10,8,0,2.0,12,8
2022,12,TSU,AlphaTauri,1450.5,-0.6589999999999918,1.9080000000000013,5.695999999999998,14.0,15.666666666666666,8,8,20,1,8.0,8,20
2022,12,GAS,AlphaTauri,1473.0,0.6589999999999918,2.566999999999993,5.695999999999998,10.0,12.333333333333334,16,14,12,0,-8.0,16,12
2022,12,MAG,Haas F1 Team,1486.5,-1.0519999999999925,1.777000000000001,1.2439999999999998,6.0,9.333333333333334,10,20,18,1,3.0,10,18
2022,12,MSC,Haas F1 Team,1447.5,1.0519999999999925,2.8289999999999935,1.2439999999999998,7.0,10.666666666666666,19,17,15,0,-3.0,19,15
2022,12,BOT,Alfa Romeo,1503.0,-0.6219999999999999,2.180000000000007,1.9339999999999975,12.0,11.666666666666666,13,11,14,0,-2.0,13,14
2022,12,ZHO,Alfa Romeo,1426.5,0.6219999999999999,2.8020000000000067,1.9339999999999975,18.0,12.333333333333334,18,16,16,1,2.0,18,16
2022,12,VET,Aston Martin,1441.5,-0.1629999999999967,2.4039999999999964,5.586333333333329,20.0,18.333333333333332,14,12,11,0,1.0,14,11
2022,12,STR,Aston Martin,1396.5,0.1629999999999967,2.566999999999993,5.586333333333329,17.0,18.333333333333332,17,15,10,0,-1.0,17,10
2022,12,ALB,Williams,1416.0,-0.48699999999999477,2.4350000000000023,2.633333333333335,11.0,13.0,15,13,13,0,-4.0,15,13
2022,12,LAT,Williams,1365.0,0.48699999999999477,2.921999999999997,2.633333333333335,19.0,16.0,20,18,17,1,4.0,20,17
2022,13,RUS,Mercedes,1552.5,-0.7650000000000006,0.0,0.7840000000000013,6.0,6.0,1,1,3,0,1.0,1,3
2022,13,HAM,Mercedes,1548.0,0.7650000000000006,0.7650000000000006,0.7840000000000013,4.0,6.0,7,7,2,0,-1.0,7,2
2022,13,SAI,Ferrari,1602.0,-0.14599999999998658,0.04400000000001114,0.00966666666667019,9.0,4.333333333333333,2,2,4,0,-2.0,2,4
2022,13,LEC,Ferrari,1633.5,0.14599999999998658,0.18999999999999773,0.00966666666667019,1.0,2.0,3,3,6,0,2.0,3,6
2022,13,NOR,McLaren,1521.0,-0.6099999999999994,0.3920000000000101,1.2966666666666669,5.0,8.666666666666666,4,4,7,0,-8.0,4,7
2022,13,RIC,McLaren,1467.0,0.6099999999999994,1.0020000000000095,1.2966666666666669,11.0,13.666666666666666,9,9,15,0,8.0,9,15
2022,13,OCO,Alpine,1489.5,-0.060000000000002274,0.6410000000000053,1.1850000000000023,12.0,10.666666666666666,5,5,9,0,1.0,5,9
2022,13,ALO,Alpine,1531.5,0.060000000000002274,0.7010000000000076,1.1850000000000023,7.0,7.333333333333333,6,6,8,0,-1.0,6,8
2022,13,BOT,Alfa Romeo,1498.5,-0.4159999999999968,0.7800000000000011,1.7503333333333349,13.0,12.333333333333334,8,8,20,1,7.0,8,20
2022,13,ZHO,Alfa Romeo,1414.5,0.4159999999999968,1.195999999999998,1.7503333333333349,18.0,15.0,12,12,13,0,-7.0,12,13
2022,13,VER,Red Bull Racing,1639.5,0.30699999999998795,1.445999999999998,0.12533333333333493,2.0,1.6666666666666667,10,10,1,0,-4.0,10,1
2022,13,PER,Red Bull Racing,1587.0,-0.30699999999998795,1.13900000000001,0.12533333333333493,3.0,6.666666666666667,11,11,5,0,4.0,11,5
2022,13,MAG,Haas F1 Team,1486.5,-0.37699999999999534,1.4480000000000075,1.282666666666671,10.0,11.0,13,13,16,0,2.0,13,16
2022,13,MSC,Haas F1 Team,1434.0,0.37699999999999534,1.8250000000000028,1.282666666666671,19.0,15.0,15,15,14,0,-2.0,15,14
2022,13,STR,Aston Martin,1386.0,-0.13599999999999568,1.7600000000000051,1.9833333333333296,17.0,18.0,14,14,11,0,1.0,14,11
2022,13,VET,Aston Martin,1435.5,0.13599999999999568,1.8960000000000008,1.9833333333333296,14.0,17.333333333333332,18,18,10,0,-1.0,18,10
2022,13,TSU,AlphaTauri,1453.5,-0.28700000000000614,1.8629999999999995,1.9343333333333323,8.0,11.666666666666666,16,16,19,0,7.0,16,19
2022,13,GAS,AlphaTauri,1464.0,0.28700000000000614,2.1500000000000057,1.9343333333333323,16.0,12.333333333333334,19,0,12,0,-7.0,19,12
2022,13,ALB,Williams,1408.5,-0.31399999999999295,1.8790000000000049,1.5920000000000034,15.0,14.0,17,17,17,0,-1.0,17,17
2022,13,LAT,Williams,1350.0,0.31399999999999295,2.192999999999998,1.5920000000000034,20.0,16.333333333333332,20,19,18,0,1.0,20,18
2022,14,VER,Red Bull Racing,1639.5,-0.796999999999997,0.0,0.48100000000000404,10.0,4.333333333333333,1,14,1,0,-1.0,1,1
2022,14,PER,Red Bull Racing,1585.5,0.796999999999997,0.796999999999997,0.48100000000000404,11.0,9.0,3,2,2,0,1.0,3,2
2022,14,SAI,Ferrari,1614.0,-0.2560000000000002,0.6319999999999908,0.024333333333340573,2.0,4.666666666666667,2,1,3,0,-3.0,2,3
2022,14,LEC,Ferrari,1644.0,0.2560000000000002,0.887999999999991,0.024333333333340573,3.0,2.0,4,15,6,0,3.0,4,6
2022,14,OCO,Alpine,1497.0,-0.18799999999998818,1.5150000000000006,1.0210000000000055,5.0,7.333333333333333,5,16,7,0,2.0,5,7
2022,14,ALO,Alpine,1537.5,0.18799999999998818,1.7029999999999887,1.0210000000000055,6.0,7.0,6,3,5,0,-2.0,6,5
2022,14,HAM,Mercedes,1552.5,-0.27299999999999613,1.8379999999999939,0.4466666666666678,7.0,6.666666666666667,7,4,20,1,16.0,7,20
2022,14,RUS,Mercedes,1566.0,0.27299999999999613,2.11099999999999,0.4466666666666678,1.0,3.6666666666666665,8,5,4,0,-16.0,8,4
2022,14,ALB,Williams,1398.0,-0.563999999999993,2.171999999999997,1.8533333333333388,17.0,14.333333333333334,9,6,10,0,-8.0,9,10
2022,14,LAT,Williams,1335.0,0.563999999999993,2.73599999999999,1.8533333333333388,20.0,19.666666666666668,17,11,18,0,8.0,17,18
2022,14,NOR,McLaren,1530.0,0.41100000000000136,2.512999999999991,1.0603333333333371,4.0,8.0,10,17,12,0,-3.0,10,12
2022,14,RIC,McLaren,1468.5,-0.41100000000000136,2.1019999999999897,1.0603333333333371,9.0,12.0,11,7,15,0,3.0,11,15
2022,14,GAS,AlphaTauri,1450.5,-0.8649999999999949,2.161999999999992,1.649000000000001,19.0,15.0,12,0,9,0,-4.0,12,9
2022,14,TSU,AlphaTauri,1444.5,0.8649999999999949,3.026999999999987,1.649000000000001,16.0,12.666666666666666,19,0,13,0,4.0,19,13
2022,14,ZHO,Alfa Romeo,1411.5,-1.781000000000006,2.4199999999999875,1.431666666666672,12.0,16.0,13,18,14,0,-5.0,13,14
2022,14,BOT,Alfa Romeo,1501.5,1.781000000000006,4.200999999999993,1.431666666666672,8.0,11.0,20,13,19,1,5.0,20,19
2022,14,STR,Aston Martin,1380.0,0.2670000000000101,2.945999999999998,2.0090000000000003,14.0,16.0,14,9,11,0,3.0,14,11
2022,14,VET,Aston Martin,1423.5,-0.2670000000000101,2.678999999999988,2.0090000000000003,18.0,17.333333333333332,16,10,8,0,-3.0,16,8
2022,14,MSC,Haas F1 Team,1426.5,1.1610000000000014,4.052999999999997,1.3733333333333395,15.0,13.666666666666666,15,19,17,0,1.0,15,17
2022,14,MAG,Haas F1 Team,1482.0,-1.1610000000000014,2.891999999999996,1.3733333333333395,13.0,9.666666666666666,18,12,16,0,-1.0,18,16
2022,15,VER,Red Bull Racing,1653.0,-0.7349999999999994,0.0,0.48100000000000404,1.0,4.333333333333333,1,1,1,0,-4.0,1,1
2022,15,PER,Red Bull Racing,1596.0,0.7349999999999994,0.7349999999999994,0.48100000000000404,3.0,5.666666666666667,5,5,5,0,4.0,5,5
2022,15,LEC,Ferrari,1653.0,-0.07099999999999795,0.021000000000000796,0.22533333333333397,4.0,2.6666666666666665,2,2,3,0,-5.0,2,3
2022,15,SAI,Ferrari,1626.0,0.07099999999999795,0.09199999999999875,0.22533333333333397,2.0,4.333333333333333,3,3,8,0,5.0,3,8
2022,15,HAM,Mercedes,1557.0,-0.49900000000000944,0.3059999999999974,0.9103333333333316,7.0,6.0,4,4,4,0,2.0,4,4
2022,15,RUS,Mercedes,1569.0,0.49900000000000944,0.8050000000000068,0.9103333333333316,8.0,5.0,6,6,2,0,-2.0,6,2
2022,15,NOR,McLaren,1530.0,-0.9069999999999965,0.8320000000000078,1.2179999999999989,10.0,6.333333333333333,7,7,7,0,-10.0,7,7
2022,15,RIC,McLaren,1467.0,0.9069999999999965,1.7390000000000043,1.2179999999999989,11.0,10.333333333333334,17,17,17,0,10.0,17,17
2022,15,MSC,Haas F1 Team,1419.0,-0.8770000000000095,1.0999999999999943,2.0390000000000015,15.0,16.333333333333332,8,8,13,0,-2.0,8,13
2022,15,MAG,Haas F1 Team,1470.0,0.8770000000000095,1.9770000000000039,2.0390000000000015,18.0,13.666666666666666,18,18,15,0,2.0,18,15
2022,15,TSU,AlphaTauri,1431.0,1.043999999999997,2.2139999999999986,1.9776666666666642,19.0,14.333333333333334,9,9,20,1,9.0,9,20
2022,15,GAS,AlphaTauri,1447.5,-1.043999999999997,1.1700000000000017,1.9776666666666642,12.0,15.666666666666666,11,11,11,0,-9.0,11,11
2022,15,STR,Aston Martin,1374.0,-0.9750000000000085,1.073999999999998,2.2809999999999966,14.0,15.0,10,10,10,0,-4.0,10,10
2022,15,VET,Aston Martin,1414.5,0.9750000000000085,2.0490000000000066,2.2809999999999966,16.0,16.0,19,19,14,0,4.0,19,14
2022,15,OCO,Alpine,1504.5,-0.007999999999995566,1.2630000000000052,1.2786666666666708,5.0,7.333333333333333,12,12,9,0,3.0,12,9
2022,15,ALO,Alpine,1543.5,0.007999999999995566,1.2710000000000008,1.2786666666666708,6.0,6.333333333333333,13,13,6,0,-3.0,13,6
2022,15,ZHO,Alfa Romeo,1407.0,-0.257000000000005,1.3619999999999948,1.793333333333332,13.0,14.333333333333334,14,14,16,0,-3.0,14,16
2022,15,BOT,Alfa Romeo,1486.5,0.257000000000005,1.6189999999999998,1.793333333333332,20.0,13.666666666666666,16,16,19,1,3.0,16,19
2022,15,ALB,Williams,1399.5,-1.5509999999999877,1.460000000000008,2.1620000000000013,9.0,13.666666666666666,15,15,12,0,-6.0,15,12
2022,15,LAT,Williams,1324.5,1.5509999999999877,3.0109999999999957,2.1620000000000013,17.0,19.0,20,20,18,0,6.0,20,18
2022,16,LEC,Ferrari,1665.0,-0.2680000000000007,0.0,0.23233333333333425,2.0,3.0,1,1,2,0,-2.0,1,2
2022,16,SAI,Ferrari,1636.5,0.2680000000000007,0.2680000000000007,0.23233333333333425,3.0,2.3333333333333335,3,18,4,0,2.0,3,4
2022,16,VER,Red Bull Racing,1666.5,-0.9000000000000057,0.14499999999999602,0.37966666666667,1.0,4.0,2,7,1,0,-5.0,2,1
2022,16,PER,Red Bull Racing,1603.5,0.9000000000000057,1.0450000000000017,0.37966666666667,5.0,6.333333333333333,4,13,6,0,5.0,4,6
2022,16,HAM,Mercedes,1566.0,-0.018000000000000682,1.3629999999999995,0.7146666666666638,4.0,6.0,5,19,5,0,2.0,5,5
2022,16,RUS,Mercedes,1575.0,0.018000000000000682,1.3810000000000002,0.7146666666666638,6.0,5.0,6,2,3,0,-2.0,6,3
2022,16,NOR,McLaren,1534.5,-0.340999999999994,1.4230000000000018,1.1086666666666691,7.0,7.0,7,3,7,0,-10.0,7,7
2022,16,RIC,McLaren,1456.5,0.340999999999994,1.7639999999999958,1.1086666666666691,17.0,12.333333333333334,8,4,17,1,10.0,8,17
2022,16,GAS,AlphaTauri,1446.0,0.6280000000000001,2.4869999999999948,1.7316666666666645,11.0,14.0,9,5,8,0,-6.0,9,8
2022,16,TSU,AlphaTauri,1432.5,-0.6280000000000001,1.8589999999999947,1.7316666666666645,9.0,14.666666666666666,15,20,14,0,6.0,15,14
2022,16,ALO,Alpine,1539.0,-0.26899999999999125,1.7000000000000028,1.1396666666666704,13.0,8.333333333333334,10,6,19,1,8.0,10,19
2022,16,OCO,Alpine,1501.5,0.26899999999999125,1.968999999999994,1.1396666666666704,12.0,7.333333333333333,11,14,11,0,-8.0,11,11
2022,16,BOT,Alfa Romeo,1477.5,-0.34199999999999875,2.073999999999998,1.520666666666661,16.0,14.666666666666666,12,15,13,0,3.0,12,13
2022,16,ZHO,Alfa Romeo,1401.0,0.34199999999999875,2.415999999999997,1.520666666666661,14.0,13.0,14,9,10,0,-3.0,14,10
2022,16,DEV,Williams,1500.0,-0.11599999999999966,2.3100000000000023,1.8370000000000033,11.0,11.0,13,8,9,0,-6.0,13,9
2022,16,LAT,Williams,1309.5,0.11599999999999966,2.426000000000002,1.8370000000000033,20.0,19.0,16,10,15,0,6.0,16,15
2022,16,VET,Aston Martin,1401.0,-0.11200000000000898,2.4749999999999943,1.8376666666666637,19.0,17.666666666666668,17,11,20,1,2.0,17,20
2022,16,STR,Aston Martin,1374.0,0.11200000000000898,2.5870000000000033,1.8376666666666637,10.0,12.666666666666666,18,12,18,1,-2.0,18,18
2022,16,MAG,Haas F1 Team,1458.0,-0.0969999999999942,2.747,1.8133333333333326,18.0,16.333333333333332,19,16,16,0,4.0,19,16
2022,16,MSC,Haas F1 Team,1422.0,0.0969999999999942,2.843999999999994,1.8133333333333326,8.0,12.666666666666666,20,17,12,0,-4.0,20,12
2022,17,LEC,Ferrari,1678.5,-0.17099999999999227,0.0,0.21766666666666387,1.0,2.3333333333333335,1,1,2,0,-1.0,1,2
2022,17,SAI,Ferrari,1647.0,0.17099999999999227,0.17099999999999227,0.21766666666666387,3.0,2.6666666666666665,4,4,3,0,1.0,4,3
2022,17,PER,Red Bull Racing,1612.5,-1.9609999999999985,0.02199999999999136,0.04833333333333201,4.0,4.0,2,2,1,0,-6.0,2,1
2022,17,VER,Red Bull Racing,1678.5,1.9609999999999985,1.9829999999999899,0.04833333333333201,2.0,1.3333333333333333,8,8,7,0,6.0,8,7
2022,17,HAM,Mercedes,1573.5,-4.5460000000000065,0.053999999999987836,1.168999999999997,5.0,5.333333333333333,3,3,9,0,-5.0,3,9
2022,17,RUS,Mercedes,1581.0,4.5460000000000065,4.599999999999994,1.168999999999997,6.0,6.666666666666667,11,0,14,0,5.0,11,14
2022,17,ALO,Alpine,1539.0,-6.371000000000009,0.5539999999999878,1.4926666666666695,10.0,9.666666666666666,5,5,18,1,2.0,5,18
2022,17,OCO,Alpine,1500.0,6.371000000000009,6.924999999999997,1.4926666666666695,11.0,9.333333333333334,18,17,16,1,-2.0,18,16
2022,17,NOR,McLaren,1539.0,-5.641999999999996,1.171999999999997,1.452333333333333,7.0,8.0,6,6,4,0,-1.0,6,4
2022,17,RIC,McLaren,1459.5,5.641999999999996,6.813999999999993,1.452333333333333,8.0,12.0,17,16,5,0,1.0,17,5
2022,17,GAS,AlphaTauri,1447.5,-0.7720000000000056,1.7989999999999924,1.7303333333333295,9.0,10.666666666666666,7,7,10,0,-5.0,7,10
2022,17,TSU,AlphaTauri,1425.0,0.7720000000000056,2.570999999999998,1.7303333333333295,15.0,14.333333333333334,10,10,15,1,5.0,10,15
2022,17,MAG,Haas F1 Team,1444.5,-2.7970000000000113,2.160999999999987,2.24633333333333,19.0,18.333333333333332,9,9,12,0,-1.0,9,12
2022,17,MSC,Haas F1 Team,1407.0,2.7970000000000113,4.957999999999998,2.24633333333333,20.0,14.333333333333334,13,12,13,0,1.0,13,13
2022,17,STR,Aston Martin,1362.0,-0.16899999999999693,4.798999999999992,2.0759999999999934,18.0,14.0,12,11,6,0,-2.0,12,6
2022,17,VET,Aston Martin,1390.5,0.16899999999999693,4.967999999999989,2.0759999999999934,17.0,17.333333333333332,14,13,8,0,2.0,14,8
2022,17,ZHO,Alfa Romeo,1395.0,-0.5649999999999977,6.1059999999999945,1.9519999999999935,14.0,13.666666666666666,15,14,20,1,9.0,15,20
2022,17,BOT,Alfa Romeo,1474.5,0.5649999999999977,6.670999999999992,1.9519999999999935,12.0,16.0,16,15,11,0,-9.0,16,11
2022,17,ALB,Williams,1392.0,-0.546999999999997,7.572999999999993,1.980666666666669,15.0,13.666666666666666,19,18,17,1,-2.0,19,17
2022,17,LAT,Williams,1300.5,0.546999999999997,8.11999999999999,1.980666666666669,16.0,17.666666666666668,20,19,19,1,2.0,20,19
2022,18,VER,Red Bull Racing,1681.5,-0.40500000000000114,0.0,0.05566666666666246,8.0,3.6666666666666665,1,1,1,0,-1.0,1,1
2022,18,PER,Red Bull Racing,1624.5,0.40500000000000114,0.40500000000000114,0.05566666666666246,2.0,3.6666666666666665,4,4,2,0,1.0,4,2
2022,18,LEC,Ferrari,1692.0,-0.047000000000011255,0.009999999999990905,0.0070000000000002656,1.0,1.3333333333333333,2,2,3,0,-16.0,2,3
2022,18,SAI,Ferrari,1656.0,0.047000000000011255,0.05700000000000216,0.0070000000000002656,4.0,3.3333333333333335,3,3,19,1,16.0,3,19
2022,18,OCO,Alpine,1488.0,-0.15699999999999648,0.8610000000000042,1.172333333333332,18.0,13.666666666666666,5,5,4,0,-3.0,5,4
2022,18,ALO,Alpine,1546.5,0.15699999999999648,1.0180000000000007,1.172333333333332,5.0,9.333333333333334,7,7,7,0,3.0,7,7
2022,18,HAM,Mercedes,1584.0,-0.1280000000000001,0.9569999999999936,0.5743333333333283,3.0,4.0,6,6,5,0,-3.0,6,5
2022,18,RUS,Mercedes,1579.5,0.1280000000000001,1.0849999999999937,0.5743333333333283,11.0,7.666666666666667,8,8,8,0,3.0,8,8
2022,18,VET,Aston Martin,1384.5,-0.8649999999999949,1.25,2.7826666666666617,14.0,16.666666666666668,9,9,6,0,-6.0,9,6
2022,18,STR,Aston Martin,1359.0,0.8649999999999949,2.114999999999995,2.7826666666666617,12.0,13.333333333333334,19,19,12,0,6.0,19,12
2022,18,NOR,McLaren,1545.0,0.3439999999999941,1.698999999999998,1.1423333333333356,6.0,6.666666666666667,10,10,10,0,-1.0,10,10
2022,18,RIC,McLaren,1449.0,-0.3439999999999941,1.355000000000004,1.1423333333333356,17.0,14.0,11,11,11,0,1.0,11,11
2022,18,BOT,Alfa Romeo,1465.5,-0.24399999999999977,1.4050000000000011,3.1806666666666623,16.0,14.666666666666666,12,12,15,0,-1.0,12,15
2022,18,ZHO,Alfa Romeo,1387.5,0.24399999999999977,1.649000000000001,3.1806666666666623,15.0,14.333333333333334,14,14,16,0,1.0,14,16
2022,18,TSU,AlphaTauri,1425.0,-0.5139999999999958,1.5040000000000049,1.6093333333333295,10.0,11.333333333333334,13,13,13,0,-5.0,13,13
2022,18,GAS,AlphaTauri,1452.0,0.5139999999999958,2.0180000000000007,1.6093333333333295,7.0,9.0,17,17,18,0,5.0,17,18
2022,18,MSC,Haas F1 Team,1402.5,0.08699999999998909,2.134999999999991,2.0026666666666606,13.0,13.666666666666666,15,15,17,0,3.0,15,17
2022,18,MAG,Haas F1 Team,1446.0,-0.08699999999998909,2.048000000000002,2.0026666666666606,9.0,15.333333333333334,18,18,14,0,-3.0,18,14
2022,18,ALB,Williams,1378.5,-0.19999999999998863,2.007000000000005,3.781000000000001,19.0,14.333333333333334,16,16,20,1,11.0,16,20
2022,18,LAT,Williams,1285.5,0.19999999999998863,2.2069999999999936,3.781000000000001,20.0,18.666666666666668,20,20,9,0,-11.0,20,9
2022,19,SAI,Ferrari,1666.5,-0.06500000000001194,0.0,0.0033333333333303017,3.0,3.3333333333333335,1,1,20,1,17.0,1,20
2022,19,LEC,Ferrari,1704.0,0.06500000000001194,0.06500000000001194,0.0033333333333303017,2.0,1.3333333333333333,2,12,3,0,-17.0,2,3
2022,19,VER,Red Bull Racing,1695.0,-0.19700000000000273,0.09199999999999875,0.05566666666666246,1.0,3.6666666666666665,3,2,1,0,-3.0,3,1
2022,19,PER,Red Bull Racing,1633.5,0.19700000000000273,0.2890000000000015,0.05566666666666246,4.0,3.3333333333333335,4,9,4,0,3.0,4,4
2022,19,HAM,Mercedes,1590.0,-0.04099999999999682,0.5910000000000082,0.791333333333327,6.0,4.666666666666667,5,3,2,0,-3.0,5,2
2022,19,RUS,Mercedes,1582.5,0.04099999999999682,0.632000000000005,0.791333333333327,8.0,8.333333333333334,6,4,5,0,3.0,6,5
2022,19,STR,Aston Martin,1345.5,-0.7999999999999972,1.2420000000000044,2.841333333333329,19.0,16.333333333333332,7,5,18,1,10.0,7,18
2022,19,VET,Aston Martin,1386.0,0.7999999999999972,2.0420000000000016,2.841333333333329,9.0,13.333333333333334,12,10,8,0,-10.0,12,8
2022,19,NOR,McLaren,1545.0,-1.3560000000000088,1.3340000000000032,1.3166666666666675,10.0,7.666666666666667,8,6,6,0,-10.0,8,6
2022,19,RIC,McLaren,1447.5,1.3560000000000088,2.690000000000012,1.3166666666666675,11.0,12.0,17,15,16,0,10.0,17,16
2022,19,ALO,Alpine,1551.0,-1.191999999999993,1.5200000000000102,1.0383333333333316,7.0,7.333333333333333,9,14,7,0,-4.0,9,7
2022,19,OCO,Alpine,1495.5,1.191999999999993,2.7120000000000033,1.0383333333333316,5.0,11.333333333333334,18,0,11,0,4.0,18,11
2022,19,BOT,Alfa Romeo,1462.5,-0.6509999999999962,1.963000000000008,3.194999999999998,12.0,13.333333333333334,10,7,19,1,7.0,10,19
2022,19,ZHO,Alfa Romeo,1381.5,0.6509999999999962,2.6140000000000043,3.194999999999998,14.0,14.333333333333334,14,18,12,0,-7.0,14,12
2022,19,ALB,Williams,1369.5,-0.8760000000000048,2.0120000000000005,3.9633333333333334,16.0,16.666666666666668,11,8,13,0,-4.0,11,13
2022,19,LAT,Williams,1270.5,0.8760000000000048,2.8880000000000052,3.9633333333333334,20.0,18.666666666666668,20,17,17,0,4.0,20,17
2022,19,GAS,AlphaTauri,1441.5,-0.4070000000000107,2.3840000000000003,1.720666666666664,17.0,11.0,13,11,14,0,4.0,13,14
2022,19,TSU,AlphaTauri,1420.5,0.4070000000000107,2.791000000000011,1.720666666666664,13.0,12.666666666666666,15,19,10,0,-4.0,15,10
2022,19,MAG,Haas F1 Team,1434.0,-0.16200000000000614,2.5930000000000035,2.318666666666663,18.0,15.333333333333334,16,13,9,0,-6.0,16,9
2022,19,MSC,Haas F1 Team,1395.0,0.16200000000000614,2.7550000000000097,2.318666666666663,15.0,16.0,19,16,15,0,6.0,19,15
2022,20,VER,Red Bull Racing,1705.5,-0.35299999999999443,0.0,0.0379999999999967,3.0,4.0,1,1,1,0,-2.0,1,1
2022,20,PER,Red Bull Racing,1642.5,0.35299999999999443,0.35299999999999443,0.0379999999999967,4.0,3.3333333333333335,4,4,3,0,2.0,4,3
2022,20,RUS,Mercedes,1588.5,-0.005000000000009663,0.30399999999998784,0.5339999999999966,6.0,8.333333333333334,2,2,4,0,2.0,2,4
2022,20,HAM,Mercedes,1597.5,0.005000000000009663,0.3089999999999975,0.5339999999999966,5.0,4.666666666666667,3,3,2,0,-2.0,3,2
2022,20,SAI,Ferrari,1680.0,-0.20400000000000773,0.5759999999999934,0.0033333333333303017,1.0,2.6666666666666665,5,5,5,0,-1.0,5,5
2022,20,LEC,Ferrari,1716.0,0.20400000000000773,0.7800000000000011,0.0033333333333303017,2.0,1.6666666666666667,7,7,6,0,1.0,7,6
2022,20,BOT,Alfa Romeo,1462.5,-1.0750000000000028,0.6259999999999906,3.1580000000000013,10.0,12.666666666666666,6,6,10,0,-3.0,6,10
2022,20,ZHO,Alfa Romeo,1375.5,1.0750000000000028,1.7009999999999934,3.1580000000000013,14.0,14.333333333333334,12,12,13,0,3.0,12,13
2022,20,NOR,McLaren,1548.0,-0.6039999999999992,0.945999999999998,1.2870000000000015,8.0,8.0,8,8,9,0,2.0,8,9
2022,20,RIC,McLaren,1437.0,0.6039999999999992,1.5499999999999972,1.2870000000000015,17.0,15.0,11,11,7,0,-2.0,11,7
2022,20,ALO,Alpine,1552.5,-0.07100000000001216,1.1639999999999873,0.978333333333334,9.0,7.0,9,9,19,1,11.0,9,19
2022,20,OCO,Alpine,1483.5,0.07100000000001216,1.2349999999999994,0.978333333333334,18.0,13.666666666666666,10,10,8,0,-11.0,10,8
2022,20,TSU,AlphaTauri,1413.0,-0.08299999999999841,1.813999999999993,1.895666666666666,15.0,12.666666666666666,13,13,20,1,9.0,13,20
2022,20,GAS,AlphaTauri,1437.0,0.08299999999999841,1.8969999999999914,1.895666666666666,13.0,12.333333333333334,14,14,11,0,-9.0,14,11
2022,20,MAG,Haas F1 Team,1425.0,-0.5859999999999985,2.0579999999999927,2.267333333333331,16.0,14.333333333333334,15,19,17,0,1.0,15,17
2022,20,MSC,Haas F1 Team,1381.5,0.5859999999999985,2.6439999999999912,2.267333333333331,19.0,15.666666666666666,16,15,16,0,-1.0,16,16
2022,20,VET,Aston Martin,1383.0,-0.10099999999999909,2.6439999999999912,2.430333333333332,12.0,11.666666666666666,17,16,14,0,-1.0,17,14
2022,20,STR,Aston Martin,1350.0,0.10099999999999909,2.7449999999999903,2.430333333333332,7.0,12.666666666666666,18,20,15,0,1.0,18,15
2022,20,ALB,Williams,1368.0,-0.30800000000000693,3.083999999999989,3.8639999999999994,11.0,15.333333333333334,19,17,12,0,-6.0,19,12
2022,20,LAT,Williams,1255.5,0.30800000000000693,3.391999999999996,3.8639999999999994,20.0,20.0,20,18,18,0,6.0,20,18
2022,21,MAG,Haas F1 Team,1417.5,-4.686999999999998,0.0,2.232999999999999,15.0,16.333333333333332,1,8,19,1,6.0,1,19
2022,21,MSC,Haas F1 Team,1372.5,4.686999999999998,4.686999999999998,2.232999999999999,16.0,16.666666666666668,20,12,13,0,-6.0,20,13
2022,21,VER,Red Bull Racing,1719.0,-3.7240000000000038,0.20299999999998875,0.03066666666666625,1.0,1.6666666666666667,2,3,6,0,-1.0,2,6
2022,21,PER,Red Bull Racing,1651.5,3.7240000000000038,3.9269999999999925,0.03066666666666625,4.0,4.0,9,4,7,0,1.0,9,7
2022,21,RUS,Mercedes,1600.5,-0.5520000000000067,0.3849999999999909,0.6173333333333298,2.0,5.333333333333333,3,1,1,0,-1.0,3,1
2022,21,HAM,Mercedes,1608.0,0.5520000000000067,0.9369999999999976,0.6173333333333298,3.0,4.666666666666667,8,2,2,0,1.0,8,2
2022,21,NOR,McLaren,1551.0,0.12300000000000466,0.5889999999999986,1.2116666666666684,8.0,8.666666666666666,4,6,18,1,-2.0,4,18
2022,21,RIC,McLaren,1435.5,-0.12300000000000466,0.465999999999994,1.2116666666666684,11.0,13.0,14,11,20,1,2.0,14,20
2022,21,SAI,Ferrari,1687.5,1.4069999999999965,0.6829999999999927,0.1953333333333281,5.0,3.0,5,7,3,0,-1.0,5,3
2022,21,LEC,Ferrari,1720.5,-1.4069999999999965,-0.7240000000000038,0.1953333333333281,7.0,3.6666666666666665,10,5,4,0,1.0,10,4
2022,21,OCO,Alpine,1483.5,-0.07900000000000773,0.7509999999999906,1.1816666666666673,10.0,11.0,6,16,8,0,3.0,6,8
2022,21,ALO,Alpine,1554.0,0.07900000000000773,0.8299999999999983,1.1816666666666673,9.0,8.333333333333334,7,17,5,0,-3.0,7,5
2022,21,ALB,Williams,1354.5,-3.4639999999999986,-0.043000000000006366,2.367666666666665,19.0,15.333333333333334,11,19,15,0,-1.0,11,15
2022,21,LAT,Williams,1240.5,3.4639999999999986,3.4209999999999923,2.367666666666665,20.0,20.0,16,18,16,0,1.0,16,16
2022,21,GAS,AlphaTauri,1431.0,-4.588999999999999,0.000999999999990564,1.900666666666666,14.0,14.666666666666666,12,10,14,0,-3.0,12,14
2022,21,TSU,AlphaTauri,1408.5,4.588999999999999,4.589999999999989,1.900666666666666,13.0,13.666666666666666,19,0,17,0,3.0,19,17
2022,21,VET,Aston Martin,1372.5,-0.5319999999999965,0.003999999999990678,1.7119999999999986,17.0,12.666666666666666,13,9,11,0,1.0,13,11
2022,21,STR,Aston Martin,1338.0,0.5319999999999965,0.5359999999999872,1.7119999999999986,18.0,14.666666666666666,15,15,10,0,-1.0,15,10
2022,21,ZHO,Alfa Romeo,1372.5,-0.2890000000000015,3.522999999999996,1.3313333333333333,12.0,13.333333333333334,17,13,12,0,3.0,17,12
2022,21,BOT,Alfa Romeo,1468.5,0.2890000000000015,3.8119999999999976,1.3313333333333333,6.0,9.333333333333334,18,14,9,0,-3.0,18,9
2022,22,VER,Red Bull Racing,1731.0,-0.22800000000000864,0.0,0.09833333333332916,2.0,2.0,1,1,1,0,-2.0,1,1
2022,22,PER,Red Bull Racing,1653.0,0.22800000000000864,0.22800000000000864,0.09833333333332916,9.0,5.666666666666667,2,2,3,0,2.0,2,3
2022,22,LEC,Ferrari,1720.5,-0.15000000000000568,0.2680000000000007,-0.04933333333333678,10.0,6.333333333333333,3,3,2,0,-2.0,3,2
2022,22,SAI,Ferrari,1695.0,0.15000000000000568,0.41800000000000637,-0.04933333333333678,5.0,3.6666666666666665,4,4,4,0,2.0,4,4
2022,22,HAM,Mercedes,1611.0,-0.0030000000000001137,0.6839999999999975,0.4266666666666623,8.0,5.333333333333333,5,5,18,1,13.0,5,18
2022,22,RUS,Mercedes,1611.0,0.0030000000000001137,0.6869999999999976,0.4266666666666623,3.0,3.6666666666666665,6,6,5,0,-13.0,6,5
2022,22,NOR,McLaren,1560.0,-0.27599999999999625,0.9450000000000074,0.9153333333333317,4.0,6.666666666666667,7,7,6,0,-3.0,7,6
2022,22,RIC,McLaren,1429.5,0.27599999999999625,1.2210000000000036,0.9153333333333317,14.0,14.0,10,13,9,0,3.0,10,9
2022,22,OCO,Alpine,1489.5,-0.26600000000000534,1.0060000000000002,1.144999999999996,6.0,11.333333333333334,8,8,7,0,-13.0,8,7
2022,22,ALO,Alpine,1558.5,0.26600000000000534,1.2720000000000056,1.144999999999996,7.0,8.333333333333334,11,10,20,1,13.0,11,20
2022,22,VET,Aston Martin,1368.0,-0.39799999999999613,1.1370000000000005,1.2966666666666622,13.0,14.0,9,9,10,0,2.0,9,10
2022,22,STR,Aston Martin,1330.5,0.39799999999999613,1.5349999999999966,1.2966666666666622,15.0,13.333333333333334,14,14,8,0,-2.0,14,8
2022,22,TSU,AlphaTauri,1395.0,-0.6400000000000006,1.394999999999996,1.3996666666666613,19.0,15.666666666666666,12,11,11,0,-3.0,12,11
2022,22,GAS,AlphaTauri,1428.0,0.6400000000000006,2.0349999999999966,1.3996666666666613,12.0,13.0,17,17,14,0,3.0,17,14
2022,22,MSC,Haas F1 Team,1357.5,-0.6090000000000089,1.4009999999999962,1.550333333333332,20.0,18.333333333333332,13,12,16,0,-1.0,13,16
2022,22,MAG,Haas F1 Team,1431.0,0.6090000000000089,2.010000000000005,1.550333333333332,1.0,10.666666666666666,16,16,17,0,1.0,16,17
2022,22,ZHO,Alfa Romeo,1362.0,-0.48399999999999466,1.5840000000000032,2.0373333333333314,17.0,14.333333333333334,15,15,12,0,-3.0,15,12
2022,22,BOT,Alfa Romeo,1456.5,0.48399999999999466,2.067999999999998,2.0373333333333314,18.0,11.333333333333334,18,18,15,0,3.0,18,15
2022,22,ALB,Williams,1353.0,-0.02599999999999625,2.2040000000000077,1.6843333333333277,11.0,13.666666666666666,19,19,13,0,-6.0,19,13
2022,22,LAT,Williams,1231.5,0.02599999999999625,2.230000000000004,1.6843333333333277,16.0,18.666666666666668,20,20,19,1,6.0,20,19
2023,1,VER,Red Bull Racing,1744.5,-0.13800000000000523,0.0,0.06766666666666292,1.0,1.3333333333333333,1,1,1,0,-1.0,1,1
2023,1,PER,Red Bull Racing,1665.0,0.13800000000000523,0.13800000000000523,0.06766666666666292,2.0,5.0,2,2,2,0,1.0,2,2
2023,1,LEC,Ferrari,1731.0,-0.15399999999999636,0.2920000000000016,0.03999999999999678,3.0,6.666666666666667,3,3,19,1,15.0,3,19
2023,1,SAI,Ferrari,1704.0,0.15399999999999636,0.44599999999999795,0.03999999999999678,4.0,4.666666666666667,4,4,4,0,-15.0,4,4
2023,1,ALO,Aston Martin,1557.0,-0.5,0.6280000000000001,1.2616666666666607,11.0,9.0,5,5,3,0,-3.0,5,3
2023,1,STR,Aston Martin,1324.5,0.5,1.1280000000000001,1.2616666666666607,14.0,15.666666666666666,8,8,6,0,3.0,8,6
2023,1,RUS,Mercedes,1617.0,-0.04399999999999693,0.632000000000005,0.45766666666665873,6.0,3.6666666666666665,6,6,7,0,2.0,6,7
2023,1,HAM,Mercedes,1618.5,0.04399999999999693,0.6760000000000019,0.45766666666665873,5.0,5.333333333333333,7,7,5,0,-2.0,7,5
2023,1,OCO,Alpine,1492.5,-1.1970000000000027,1.2759999999999962,0.9736666666666594,8.0,8.0,9,9,18,1,9.0,9,18
2023,1,GAS,Alpine,1417.5,1.1970000000000027,2.472999999999999,0.9736666666666594,17.0,14.333333333333334,20,20,9,0,-9.0,20,9
2023,1,HUL,Haas F1 Team,1477.5,-1.0829999999999984,1.100999999999999,1.1529999999999963,18.0,17.5,10,10,15,1,2.0,10,15
2023,1,MAG,Haas F1 Team,1422.0,1.0829999999999984,2.1839999999999975,1.1529999999999963,16.0,10.666666666666666,17,17,13,1,-2.0,17,13
2023,1,NOR,McLaren,1564.5,-0.7199999999999989,1.6730000000000018,0.7856666666666664,7.0,6.333333333333333,11,11,17,1,-3.0,11,17
2023,1,PIA,McLaren,1500.0,0.7199999999999989,2.3930000000000007,0.7856666666666664,11.0,11.0,18,18,20,1,3.0,18,20
2023,1,BOT,Alfa Romeo,1444.5,-0.030000000000001137,1.7349999999999994,1.9109999999999967,18.0,14.0,12,12,8,0,-8.0,12,8
2023,1,ZHO,Alfa Romeo,1354.5,0.030000000000001137,1.7650000000000006,1.9109999999999967,15.0,14.666666666666666,13,13,16,1,8.0,13,16
2023,1,TSU,AlphaTauri,1392.0,0.38900000000001,2.8020000000000067,1.0699999999999932,12.0,14.666666666666666,14,14,11,0,-3.0,14,11
2023,1,DEV,AlphaTauri,1495.5,-0.38900000000001,2.4129999999999967,1.0699999999999932,13.0,13.0,19,19,14,1,3.0,19,14
2023,1,ALB,Williams,1339.5,-0.1910000000000025,1.7530000000000001,1.7483333333333302,19.0,16.333333333333332,15,15,10,0,-2.0,15,10
2023,1,SAR,Williams,1500.0,0.1910000000000025,1.9440000000000026,1.7483333333333302,11.0,11.0,16,16,12,1,2.0,16,12
2023,2,PER,Red Bull Racing,1677.0,-21.688000000000002,0.0,0.06766666666666292,2.0,4.333333333333333,1,1,1,0,-1.0,1,1
2023,2,VER,Red Bull Racing,1758.0,21.688000000000002,21.688000000000002,0.06766666666666292,1.0,1.3333333333333333,15,15,2,0,1.0,15,2
2023,2,LEC,Ferrari,1741.5,-0.5109999999999957,0.15500000000000114,-0.05466666666666716,3.0,5.333333333333333,2,12,7,0,1.0,2,7
2023,2,SAI,Ferrari,1713.0,0.5109999999999957,0.6659999999999968,-0.05466666666666716,4.0,4.333333333333333,5,4,6,0,-1.0,5,6
2023,2,ALO,Aston Martin,1564.5,-0.2149999999999892,0.4650000000000034,0.5896666666666638,5.0,7.666666666666667,3,2,3,0,-17.0,3,3
2023,2,STR,Aston Martin,1327.5,0.2149999999999892,0.6799999999999926,0.5896666666666638,8.0,12.333333333333334,6,5,20,1,17.0,6,20
2023,2,RUS,Mercedes,1623.0,-0.36599999999999966,0.5919999999999987,0.5669999999999978,6.0,5.0,4,3,4,0,-1.0,4,4
2023,2,HAM,Mercedes,1623.0,0.36599999999999966,0.9579999999999984,0.5669999999999978,7.0,6.666666666666667,8,7,5,0,1.0,8,5
2023,2,OCO,Alpine,1494.0,-0.27899999999999636,0.8130000000000024,1.0109999999999957,9.0,7.666666666666667,7,6,8,0,-1.0,7,8
2023,2,GAS,Alpine,1402.5,0.27899999999999636,1.0919999999999987,1.0109999999999957,20.0,16.333333333333332,10,9,9,0,1.0,10,9
2023,2,PIA,McLaren,1488.0,-1.2040000000000077,0.9779999999999944,1.0280000000000011,18.0,18.0,9,8,15,0,-2.0,9,15
2023,2,NOR,McLaren,1563.0,1.2040000000000077,2.182000000000002,1.0280000000000011,11.0,7.333333333333333,19,19,17,0,2.0,19,17
2023,2,HUL,Haas F1 Team,1477.5,-0.18300000000000693,1.1859999999999928,0.8339999999999984,10.0,15.0,11,10,12,0,2.0,11,12
2023,2,MAG,Haas F1 Team,1411.5,0.18300000000000693,1.3689999999999998,0.8339999999999984,17.0,11.333333333333334,13,13,10,0,-2.0,13,10
2023,2,ZHO,Alfa Romeo,1350.0,-0.20700000000000784,1.195999999999998,2.2806666666666664,13.0,15.0,12,11,13,0,-5.0,12,13
2023,2,BOT,Alfa Romeo,1441.5,0.20700000000000784,1.4030000000000058,2.2806666666666664,12.0,16.0,14,14,18,1,5.0,14,18
2023,2,TSU,AlphaTauri,1386.0,-0.3050000000000068,1.6739999999999924,1.2696666666666612,14.0,15.0,16,16,11,0,-3.0,16,11
2023,2,DEV,AlphaTauri,1482.0,0.3050000000000068,1.9789999999999992,1.2696666666666612,19.0,16.0,18,18,14,0,3.0,18,14
2023,2,ALB,Williams,1332.0,-38.51599999999999,1.7289999999999992,1.304666666666667,15.0,15.0,17,17,19,1,3.0,17,19
2023,2,SAR,Williams,1491.0,38.51599999999999,40.24499999999999,1.304666666666667,16.0,16.0,20,20,16,0,-3.0,20,16
2023,3,VER,Red Bull Racing,1750.5,0.0,0.0,0.0,15.0,5.666666666666667,1,1,1,0,-4.0,1,1
2023,3,RUS,Mercedes,1632.0,-0.13599999999999568,0.2360000000000042,0.6360000000000005,4.0,5.333333333333333,2,2,18,1,16.0,2,18
2023,3,HAM,Mercedes,1626.0,0.13599999999999568,0.3719999999999999,0.6360000000000005,8.0,6.666666666666667,3,3,2,0,-16.0,3,2
2023,3,ALO,Aston Martin,1575.0,-0.16900000000001114,0.4069999999999965,0.7433333333333346,3.0,6.333333333333333,4,4,3,0,-1.0,4,3
2023,3,STR,Aston Martin,1333.5,0.16900000000001114,0.5760000000000076,0.7433333333333346,6.0,9.333333333333334,6,6,4,0,1.0,6,4
2023,3,SAI,Ferrari,1720.5,-0.09900000000000375,0.5379999999999967,0.23833333333333448,5.0,4.333333333333333,5,5,12,0,-8.0,5,12
2023,3,LEC,Ferrari,1753.5,0.09900000000000375,0.6370000000000005,0.23833333333333448,2.0,2.6666666666666665,7,7,20,1,8.0,7,20
2023,3,ALB,Williams,1321.5,-0.9480000000000075,0.8769999999999953,1.8953333333333358,17.0,17.0,8,8,19,1,3.0,8,19
2023,3,SAR,Williams,1476.0,0.9480000000000075,1.8250000000000028,1.8953333333333358,20.0,18.0,18,18,16,1,-3.0,18,16
2023,3,GAS,Alpine,1402.5,-0.09300000000000352,0.9429999999999978,1.0316666666666663,10.0,15.666666666666666,9,9,13,1,-1.0,9,13
2023,3,OCO,Alpine,1498.5,0.09300000000000352,1.0360000000000014,1.0316666666666663,7.0,8.0,11,11,14,1,1.0,11,14
2023,3,HUL,Haas F1 Team,1476.0,-0.39400000000000546,1.0030000000000001,1.2293333333333294,11.0,13.0,10,10,7,0,-10.0,10,7
2023,3,MAG,Haas F1 Team,1407.0,0.39400000000000546,1.3970000000000056,1.2293333333333294,13.0,15.333333333333334,14,14,17,1,10.0,14,17
2023,3,TSU,AlphaTauri,1377.0,-0.23599999999999,1.3670000000000044,1.8273333333333284,16.0,14.0,12,12,10,0,-5.0,12,10
2023,3,DEV,AlphaTauri,1470.0,0.23599999999999,1.6029999999999944,1.8273333333333284,18.0,16.666666666666668,15,15,15,1,5.0,15,15
2023,3,NOR,McLaren,1549.5,-0.39799999999999613,1.3870000000000005,1.1986666666666679,19.0,12.333333333333334,13,13,6,0,-2.0,13,6
2023,3,PIA,McLaren,1489.5,0.39799999999999613,1.7849999999999966,1.1986666666666679,9.0,13.5,16,16,8,0,2.0,16,8
2023,3,ZHO,Alfa Romeo,1347.0,-0.17399999999999238,1.808000000000007,1.5050000000000001,12.0,13.333333333333334,17,17,9,0,-2.0,17,9
2023,3,BOT,Alfa Romeo,1435.5,0.17399999999999238,1.9819999999999993,1.5050000000000001,14.0,14.666666666666666,19,19,11,0,2.0,19,11
2023,4,LEC,Ferrari,1758.0,-0.8130000000000024,0.0,0.32833333333333314,7.0,4.0,1,1,3,0,-2.0,1,3
2023,4,SAI,Ferrari,1728.0,0.8130000000000024,0.8130000000000024,0.32833333333333314,5.0,4.666666666666667,4,4,5,0,2.0,4,5
2023,4,VER,Red Bull Racing,1764.0,-0.1039999999999992,0.1880000000000024,0.0,1.0,5.666666666666667,2,2,2,0,1.0,2,2
2023,4,PER,Red Bull Racing,1690.5,0.1039999999999992,0.2920000000000016,0.0,1.0,1.6666666666666667,3,3,1,0,-1.0,3,1
2023,4,HAM,Mercedes,1636.5,-0.47699999999998965,0.9740000000000038,0.4866666666666693,3.0,6.0,5,5,6,0,-2.0,5,6
2023,4,RUS,Mercedes,1644.0,0.47699999999998965,1.4509999999999934,0.4866666666666693,2.0,4.0,11,11,8,0,2.0,11,8
2023,4,ALO,Aston Martin,1584.0,-0.3580000000000041,1.0499999999999972,0.5,4.0,4.0,6,6,4,0,-3.0,6,4
2023,4,STR,Aston Martin,1339.5,0.3580000000000041,1.4080000000000013,0.5,6.0,6.666666666666667,9,9,7,0,3.0,9,7
2023,4,NOR,McLaren,1545.0,-0.3299999999999983,1.078000000000003,1.345999999999999,13.0,14.333333333333334,7,7,9,0,-2.0,7,9
2023,4,PIA,McLaren,1480.5,0.3299999999999983,1.4080000000000013,1.345999999999999,16.0,14.333333333333334,10,10,11,0,2.0,10,11
2023,4,TSU,AlphaTauri,1374.0,-13.700999999999993,1.3780000000000001,1.8179999999999978,12.0,14.0,8,8,10,0,-10.0,8,10
2023,4,DEV,AlphaTauri,1462.5,13.700999999999993,15.078999999999994,1.8179999999999978,15.0,17.333333333333332,20,18,20,1,10.0,20,20
2023,4,OCO,Alpine,1497.0,-3.0549999999999926,1.5949999999999989,1.0106666666666655,11.0,9.0,12,19,15,0,1.0,12,15
2023,4,GAS,Alpine,1404.0,3.0549999999999926,4.6499999999999915,1.0106666666666655,9.0,13.0,19,17,14,0,-1.0,19,14
2023,4,ALB,Williams,1324.5,-0.5769999999999982,1.6149999999999949,1.4529999999999983,8.0,13.333333333333334,13,12,12,0,-4.0,13,12
2023,4,SAR,Williams,1464.0,0.5769999999999982,2.191999999999993,1.4529999999999983,18.0,18.0,15,14,16,0,4.0,15,16
2023,4,BOT,Alfa Romeo,1422.0,-0.38299999999999557,2.0559999999999974,1.579666666666668,19.0,15.0,14,13,18,1,-1.0,14,18
2023,4,ZHO,Alfa Romeo,1336.5,0.38299999999999557,2.438999999999993,1.579666666666668,17.0,14.0,16,15,19,1,1.0,16,19
2023,4,HUL,Haas F1 Team,1476.0,-0.6620000000000061,2.5519999999999925,1.096666666666664,10.0,10.333333333333334,17,20,17,1,4.0,17,17
2023,4,MAG,Haas F1 Team,1401.0,0.6620000000000061,3.2139999999999986,1.096666666666664,14.0,14.666666666666666,18,16,13,0,-4.0,18,13
2023,5,PER,Red Bull Racing,1701.0,0.027000000000001023,0.0,0.06266666666666747,3.0,2.0,1,1,2,0,1.0,1,2
2023,5,VER,Red Bull Racing,1776.0,-0.027000000000001023,-0.027000000000001023,0.06266666666666747,2.0,6.0,9,9,1,0,-1.0,9,1
2023,5,ALO,Aston Martin,1590.0,-1.274000000000001,0.3610000000000042,0.6406666666666657,6.0,4.333333333333333,2,2,3,0,-9.0,2,3
2023,5,STR,Aston Martin,1341.0,1.274000000000001,1.6350000000000051,0.6406666666666657,9.0,7.0,18,18,12,0,9.0,18,12
2023,5,SAI,Ferrari,1737.0,-0.5120000000000005,0.5080000000000098,0.2309999999999993,4.0,4.666666666666667,3,3,5,0,-2.0,3,5
2023,5,LEC,Ferrari,1771.5,0.5120000000000005,1.0200000000000102,0.2309999999999993,1.0,3.3333333333333335,7,7,7,0,2.0,7,7
2023,5,MAG,Haas F1 Team,1389.0,-0.1360000000000099,0.9260000000000019,1.5803333333333285,18.0,15.0,4,4,10,0,-5.0,4,10
2023,5,HUL,Haas F1 Team,1465.5,0.1360000000000099,1.0620000000000118,1.5803333333333285,17.0,12.666666666666666,12,12,15,0,5.0,12,15
2023,5,GAS,Alpine,1390.5,-0.1490000000000009,0.9450000000000074,1.1169999999999998,19.0,12.666666666666666,5,5,8,0,-1.0,5,8
2023,5,OCO,Alpine,1494.0,0.1490000000000009,1.0940000000000083,1.1169999999999998,12.0,10.0,8,8,9,0,1.0,8,9
2023,5,RUS,Mercedes,1642.5,-0.17099999999999227,0.9630000000000081,0.6006666666666689,11.0,5.666666666666667,6,6,4,0,-2.0,6,4
2023,5,HAM,Mercedes,1644.0,0.17099999999999227,1.1340000000000003,0.6006666666666689,5.0,5.333333333333333,13,13,6,0,2.0,13,6
2023,5,BOT,Alfa Romeo,1416.0,-0.527000000000001,0.722999999999999,1.6866666666666674,14.0,15.666666666666666,10,10,13,0,-3.0,10,13
2023,5,ZHO,Alfa Romeo,1327.5,0.527000000000001,1.25,1.6866666666666674,16.0,15.0,14,14,16,0,3.0,14,16
2023,5,ALB,Williams,1320.0,-0.7819999999999965,0.9540000000000077,1.4069999999999965,13.0,12.666666666666666,11,11,14,0,-6.0,11,14
2023,5,SAR,Williams,1456.5,0.7819999999999965,1.7360000000000042,1.4069999999999965,15.0,17.666666666666668,20,20,20,1,6.0,20,20
2023,5,DEV,AlphaTauri,1447.5,-0.034000000000006025,1.554000000000002,1.472999999999999,20.0,17.666666666666668,15,15,18,0,7.0,15,18
2023,5,TSU,AlphaTauri,1377.0,0.034000000000006025,1.588000000000008,1.472999999999999,8.0,12.0,17,17,11,0,-7.0,17,11
2023,5,NOR,McLaren,1549.5,-0.0899999999999892,1.5530000000000115,1.147666666666666,7.0,13.0,16,16,17,0,-2.0,16,17
2023,5,PIA,McLaren,1480.5,0.0899999999999892,1.6430000000000007,1.147666666666666,10.0,11.666666666666666,19,19,19,1,2.0,19,19
2023,6,VER,Red Bull Racing,1777.5,-2.4849999999999994,0.0,0.05366666666666712,9.0,4.0,1,1,1,0,-15.0,1,1
2023,6,PER,Red Bull Racing,1714.5,2.4849999999999994,2.4849999999999994,0.05366666666666712,1.0,1.6666666666666667,20,20,16,1,15.0,20,16
2023,6,ALO,Aston Martin,1602.0,-1.1740000000000066,0.08400000000000318,0.6059999999999993,2.0,4.0,2,2,2,0,-18.0,2,2
2023,6,STR,Aston Martin,1329.0,1.1740000000000066,1.2580000000000098,0.6059999999999993,18.0,11.0,14,14,20,1,18.0,14,20
2023,6,LEC,Ferrari,1776.0,-0.15899999999999181,0.10600000000000875,0.34866666666666885,7.0,5.0,3,6,6,0,-2.0,3,6
2023,6,SAI,Ferrari,1747.5,0.15899999999999181,0.26500000000000057,0.34866666666666885,3.0,4.0,5,4,8,0,2.0,5,8
2023,6,OCO,Alpine,1497.0,-0.38000000000000966,0.1880000000000024,1.1610000000000014,8.0,10.333333333333334,4,3,3,0,-4.0,4,3
2023,6,GAS,Alpine,1398.0,0.38000000000000966,0.568000000000012,1.1610000000000014,5.0,11.0,7,7,7,0,4.0,7,7
2023,6,HAM,Mercedes,1639.5,-0.23900000000000432,0.35999999999999943,0.7243333333333387,13.0,7.0,6,5,4,0,-1.0,6,4
2023,6,RUS,Mercedes,1648.5,0.23900000000000432,0.5990000000000038,0.7243333333333387,6.0,6.333333333333333,8,8,5,0,1.0,8,5
2023,6,TSU,AlphaTauri,1366.5,-0.34600000000000364,0.7169999999999987,1.4330000000000023,17.0,12.333333333333334,9,9,15,1,3.0,9,15
2023,6,DEV,AlphaTauri,1440.0,0.34600000000000364,1.0630000000000024,1.4330000000000023,15.0,16.666666666666668,12,12,12,1,-3.0,12,12
2023,6,NOR,McLaren,1540.5,-0.14099999999999113,0.88900000000001,1.3393333333333384,16.0,12.0,10,10,9,1,-1.0,10,9
2023,6,PIA,McLaren,1467.0,0.14099999999999113,1.0300000000000011,1.3393333333333384,19.0,15.0,11,11,10,1,1.0,11,10
2023,6,ALB,Williams,1318.5,-0.5859999999999985,1.1620000000000061,1.148666666666666,11.0,10.666666666666666,13,13,14,1,-4.0,13,14
2023,6,SAR,Williams,1441.5,0.5859999999999985,1.7480000000000047,1.148666666666666,20.0,17.666666666666668,16,16,18,1,4.0,16,18
2023,6,BOT,Alfa Romeo,1416.0,-0.8979999999999961,1.2600000000000051,1.529000000000001,10.0,14.333333333333334,15,15,11,1,-2.0,15,11
2023,6,ZHO,Alfa Romeo,1321.5,0.8979999999999961,2.1580000000000013,1.529000000000001,14.0,15.666666666666666,19,19,13,1,2.0,19,13
2023,6,MAG,Haas F1 Team,1398.0,-0.009000000000000341,1.9050000000000011,1.493666666666665,4.0,12.0,17,17,19,1,2.0,17,19
2023,6,HUL,Haas F1 Team,1462.5,0.009000000000000341,1.9140000000000015,1.493666666666665,12.0,13.0,18,18,17,1,-2.0,18,17
2023,7,VER,Red Bull Racing,1791.0,-1.0619999999999976,0.0,0.05366666666666712,1.0,4.0,1,1,1,0,-3.0,1,1
2023,7,PER,Red Bull Racing,1699.5,1.0619999999999976,1.0619999999999976,0.05366666666666712,20.0,8.0,11,11,4,0,3.0,11,4
2023,7,SAI,Ferrari,1755.0,-1.3449999999999989,0.4619999999999891,0.20466666666667285,5.0,4.0,2,2,5,0,-6.0,2,5
2023,7,LEC,Ferrari,1786.5,1.3449999999999989,1.806999999999988,0.20466666666667285,3.0,3.6666666666666665,19,19,11,0,6.0,19,11
2023,7,NOR,McLaren,1540.5,-0.8900000000000006,0.519999999999996,1.1733333333333416,10.0,11.0,3,3,17,1,4.0,3,17
2023,7,PIA,McLaren,1465.5,0.8900000000000006,1.4099999999999966,1.1733333333333416,11.0,13.333333333333334,10,9,13,1,-4.0,10,13
2023,7,GAS,Alpine,1402.5,-0.2669999999999959,0.5439999999999969,0.9093333333333362,7.0,10.333333333333334,4,10,10,0,2.0,4,10
2023,7,OCO,Alpine,1506.0,0.2669999999999959,0.8109999999999928,0.9093333333333362,4.0,8.0,7,6,8,0,-2.0,7,8
2023,7,HAM,Mercedes,1645.5,-0.6290000000000049,0.5459999999999923,0.7656666666666704,6.0,8.0,5,4,2,0,-1.0,5,2
2023,7,RUS,Mercedes,1651.5,0.6290000000000049,1.1749999999999972,0.7656666666666704,8.0,8.333333333333334,12,12,3,0,1.0,12,3
2023,7,STR,Aston Martin,1323.0,-0.5130000000000052,0.7219999999999942,0.49833333333333485,14.0,13.666666666666666,6,5,6,0,-1.0,6,6
2023,7,ALO,Aston Martin,1614.0,0.5130000000000052,1.2349999999999994,0.49833333333333485,2.0,3.3333333333333335,9,8,7,0,1.0,9,7
2023,7,HUL,Haas F1 Team,1450.5,-0.8130000000000024,0.9569999999999936,1.7943333333333318,18.0,15.666666666666666,8,7,15,1,-3.0,8,15
2023,7,MAG,Haas F1 Team,1387.5,0.8130000000000024,1.769999999999996,1.7943333333333318,17.0,13.0,17,17,18,1,3.0,17,18
2023,7,ZHO,Alfa Romeo,1308.0,-0.45600000000000307,1.2489999999999952,1.3463333333333338,19.0,16.333333333333332,13,13,9,0,-10.0,13,9
2023,7,BOT,Alfa Romeo,1408.5,0.45600000000000307,1.7049999999999983,1.3463333333333338,15.0,13.0,16,16,19,1,10.0,16,19
2023,7,DEV,AlphaTauri,1437.0,-0.39400000000000546,1.8109999999999928,1.2163333333333337,12.0,15.666666666666666,14,14,14,1,2.0,14,14
2023,7,TSU,AlphaTauri,1368.0,0.39400000000000546,2.2049999999999983,1.2163333333333337,9.0,11.333333333333334,15,15,12,0,-2.0,15,12
2023,7,ALB,Williams,1314.0,-0.6359999999999957,1.7909999999999968,1.2436666666666696,13.0,12.333333333333334,18,18,16,1,-4.0,18,16
2023,7,SAR,Williams,1432.5,0.6359999999999957,2.4269999999999925,1.2436666666666696,16.0,17.0,20,20,20,1,4.0,20,20
2023,8,VER,Red Bull Racing,1804.5,4.899000000000001,0.0,-0.009000000000000341,1.0,3.6666666666666665,1,1,1,0,-5.0,1,1
2023,8,PER,Red Bull Racing,1698.0,-4.899000000000001,-4.899000000000001,-0.009000000000000341,11.0,10.666666666666666,12,12,6,0,5.0,12,6
2023,8,HUL,Haas F1 Team,1453.5,5.424000000000007,1.2439999999999998,1.2626666666666655,8.0,12.666666666666666,2,5,15,1,-2.0,2,15
2023,8,MAG,Haas F1 Team,1377.0,-5.424000000000007,-4.180000000000007,1.2626666666666655,17.0,12.666666666666666,14,13,17,1,2.0,14,17
2023,8,ALO,Aston Martin,1615.5,5.802000000000007,1.4279999999999973,0.3890000000000005,9.0,4.333333333333333,3,2,2,0,-7.0,3,2
2023,8,STR,Aston Martin,1329.0,-5.802000000000007,-4.374000000000009,0.3890000000000005,6.0,12.666666666666666,13,16,9,0,7.0,13,9
2023,8,HAM,Mercedes,1653.0,-0.26600000000000534,1.7689999999999912,0.6229999999999999,5.0,8.0,4,3,3,0,-16.0,4,3
2023,8,RUS,Mercedes,1648.5,0.26600000000000534,2.0349999999999966,0.6229999999999999,12.0,8.666666666666666,5,4,19,1,16.0,5,19
2023,8,OCO,Alpine,1510.5,5.0589999999999975,2.086999999999989,0.5590000000000023,7.0,6.333333333333333,6,6,8,0,-4.0,6,8
2023,8,GAS,Alpine,1411.5,-5.0589999999999975,-2.9720000000000084,0.5590000000000023,4.0,5.333333333333333,17,15,12,0,4.0,17,12
2023,8,NOR,McLaren,1551.0,-3.3029999999999973,2.1880000000000024,0.9873333333333392,3.0,9.666666666666666,7,7,13,0,2.0,7,13
2023,8,PIA,McLaren,1465.5,3.3029999999999973,5.491,0.9873333333333392,10.0,13.333333333333334,9,8,11,0,-2.0,9,11
2023,8,SAI,Ferrari,1767.0,8.679000000000002,3.435999999999993,0.3586666666666692,2.0,3.3333333333333335,8,11,5,0,1.0,8,5
2023,8,LEC,Ferrari,1773.0,-8.679000000000002,-5.243000000000009,0.3586666666666692,19.0,9.666666666666666,11,10,4,0,-1.0,11,4
2023,8,ALB,Williams,1302.0,-4.612000000000009,-7.13300000000001,1.302333333333337,18.0,14.0,10,9,7,0,-13.0,10,7
2023,8,SAR,Williams,1417.5,4.612000000000009,-2.521000000000001,1.302333333333337,20.0,18.666666666666668,19,18,20,1,13.0,19,20
2023,8,BOT,Alfa Romeo,1399.5,-1.5210000000000008,-4.037000000000006,1.077333333333333,16.0,13.666666666666666,15,14,10,0,-6.0,15,10
2023,8,ZHO,Alfa Romeo,1303.5,1.5210000000000008,-2.5160000000000053,1.077333333333333,13.0,15.333333333333334,20,20,16,1,6.0,20,16
2023,8,TSU,AlphaTauri,1360.5,-0.39100000000000534,-3.112000000000009,1.3606666666666645,15.0,13.666666666666666,16,19,14,0,-4.0,16,14
2023,8,DEV,AlphaTauri,1431.0,0.39100000000000534,-2.7210000000000036,1.3606666666666645,14.0,13.666666666666666,18,17,18,1,4.0,18,18
2023,9,VER,Red Bull Racing,1818.0,-62.297,0.0,-1.6330000000000002,1.0,1.0,1,1,1,0,-2.0,1,1
2023,9,PER,Red Bull Racing,1695.0,62.297,62.297,-1.6330000000000002,12.0,14.333333333333334,15,15,3,0,2.0,15,3
2023,9,LEC,Ferrari,1771.5,-0.14200000000001012,0.04799999999998761,-1.5583333333333371,11.0,11.0,2,2,2,0,-4.0,2,2
2023,9,SAI,Ferrari,1770.0,0.14200000000001012,0.18999999999999773,-1.5583333333333371,8.0,5.0,3,3,6,0,4.0,3,6
2023,9,NOR,McLaren,1555.5,-0.9470000000000027,0.2669999999999959,1.1990000000000027,7.0,6.666666666666667,4,4,4,0,-12.0,4,4
2023,9,PIA,McLaren,1467.0,0.9470000000000027,1.2139999999999986,1.1990000000000027,9.0,10.0,13,13,16,1,12.0,13,16
2023,9,HAM,Mercedes,1662.0,-0.6089999999999947,0.42799999999999727,0.891666666666661,4.0,5.0,5,5,8,0,1.0,5,8
2023,9,RUS,Mercedes,1656.0,0.6089999999999947,1.036999999999992,0.891666666666661,5.0,8.333333333333334,11,11,7,0,-1.0,11,7
2023,9,STR,Aston Martin,1324.5,-0.018000000000000682,0.5019999999999953,-1.1893333333333374,13.0,11.0,6,6,9,0,4.0,6,9
2023,9,ALO,Aston Martin,1626.0,0.018000000000000682,0.519999999999996,-1.1893333333333374,3.0,4.666666666666667,7,7,5,0,-4.0,7,5
2023,9,HUL,Haas F1 Team,1465.5,-0.8810000000000002,0.6989999999999981,-0.43933333333333735,2.0,9.333333333333334,8,8,20,1,2.0,8,20
2023,9,MAG,Haas F1 Team,1371.0,0.8810000000000002,1.5799999999999983,-0.43933333333333735,14.0,16.0,19,19,18,1,-2.0,19,18
2023,9,GAS,Alpine,1401.0,-0.28300000000000125,0.7789999999999964,-0.7466666666666697,17.0,9.333333333333334,9,9,10,0,-4.0,9,10
2023,9,OCO,Alpine,1516.5,0.28300000000000125,1.0619999999999976,-0.7466666666666697,6.0,5.666666666666667,12,12,14,1,4.0,12,14
2023,9,ALB,Williams,1302.0,-0.125,1.431999999999988,-1.3933333333333355,10.0,13.666666666666666,10,10,11,0,-2.0,10,11
2023,9,SAR,Williams,1404.0,0.125,1.556999999999988,-1.3933333333333355,19.0,18.333333333333332,18,18,13,1,2.0,18,13
2023,9,BOT,Alfa Romeo,1392.0,-0.13799999999999102,1.2890000000000015,-0.5093333333333353,15.0,15.333333333333334,14,14,15,1,3.0,14,15
2023,9,ZHO,Alfa Romeo,1288.5,0.13799999999999102,1.4269999999999925,-0.5093333333333353,20.0,17.333333333333332,17,17,12,1,-3.0,17,12
2023,9,TSU,AlphaTauri,1351.5,-0.18999999999999773,1.3930000000000007,-0.19466666666667246,16.0,13.333333333333334,16,16,19,1,2.0,16,19
2023,9,DEV,AlphaTauri,1419.0,0.18999999999999773,1.5829999999999984,-0.19466666666667246,18.0,14.666666666666666,20,20,17,1,-2.0,20,17
2023,10,VER,Red Bull Racing,1831.5,-3.2480000000000047,0.0,-1.6330000000000002,1.0,1.0,1,1,1,0,-5.0,1,1
2023,10,PER,Red Bull Racing,1687.5,3.2480000000000047,3.2480000000000047,-1.6330000000000002,15.0,12.666666666666666,15,15,6,0,5.0,15,6
2023,10,NOR,McLaren,1564.5,-0.13100000000000023,0.24099999999999966,0.9916666666666648,4.0,4.666666666666667,2,2,2,0,-2.0,2,2
2023,10,PIA,McLaren,1462.5,0.13100000000000023,0.3719999999999999,0.9916666666666648,13.0,10.666666666666666,3,3,4,0,2.0,3,4
2023,10,LEC,Ferrari,1783.5,-0.012000000000000455,0.4159999999999968,-1.5776666666666774,2.0,10.666666666666666,4,4,9,0,-1.0,4,9
2023,10,SAI,Ferrari,1780.5,0.012000000000000455,0.42799999999999727,-1.5776666666666774,3.0,4.333333333333333,5,5,10,0,1.0,5,10
2023,10,RUS,Mercedes,1654.5,-0.055999999999997385,0.4350000000000023,0.9143333333333269,11.0,9.333333333333334,6,6,5,0,2.0,6,5
2023,10,HAM,Mercedes,1669.5,0.055999999999997385,0.49099999999999966,0.9143333333333269,5.0,4.666666666666667,7,7,3,0,-2.0,7,3
2023,10,ALB,Williams,1302.0,-1.5010000000000048,0.8100000000000023,-1.3033333333333417,10.0,12.666666666666666,8,8,8,0,-3.0,8,8
2023,10,SAR,Williams,1392.0,1.5010000000000048,2.311000000000007,-1.3033333333333417,18.0,19.0,14,14,11,0,3.0,14,11
2023,10,ALO,Aston Martin,1630.5,-1.2759999999999962,0.9390000000000072,-1.0500000000000067,7.0,6.333333333333333,9,9,7,0,-7.0,9,7
2023,10,STR,Aston Martin,1330.5,1.2759999999999962,2.2150000000000034,-1.0500000000000067,6.0,8.333333333333334,12,12,14,0,7.0,12,14
2023,10,GAS,Alpine,1402.5,-1.2670000000000101,0.9689999999999941,-0.5496666666666717,9.0,10.0,10,10,18,1,-2.0,10,18
2023,10,OCO,Alpine,1513.5,1.2670000000000101,2.236000000000004,-0.5496666666666717,12.0,8.333333333333334,13,13,20,1,2.0,13,20
2023,10,HUL,Haas F1 Team,1468.5,-3.4819999999999993,2.176000000000002,-0.8413333333333384,8.0,6.0,11,11,13,0,-6.0,11,13
2023,10,MAG,Haas F1 Team,1357.5,3.4819999999999993,5.658000000000001,-0.8413333333333384,19.0,16.666666666666668,19,19,19,1,6.0,19,19
2023,10,BOT,Alfa Romeo,1386.0,-0.32500000000000284,3.078000000000003,-0.4996666666666698,14.0,15.0,15,20,12,0,-3.0,15,12
2023,10,ZHO,Alfa Romeo,1278.0,0.32500000000000284,3.403000000000006,-0.4996666666666698,17.0,16.666666666666668,17,17,15,0,3.0,17,15
2023,10,TSU,AlphaTauri,1342.5,-0.48799999999999955,3.305000000000007,0.030666666666661513,16.0,15.666666666666666,16,16,16,0,-1.0,16,16
2023,10,DEV,AlphaTauri,1404.0,0.48799999999999955,3.7930000000000064,0.030666666666661513,20.0,17.333333333333332,18,18,17,0,1.0,18,17
2023,11,HAM,Mercedes,1674.0,-2.4180000000000064,0.0,0.8773333333333303,7.0,5.333333333333333,1,1,4,0,-2.0,1,4
2023,11,RUS,Mercedes,1660.5,2.4180000000000064,2.4180000000000064,0.8773333333333303,6.0,7.333333333333333,18,18,6,0,2.0,18,6
2023,11,VER,Red Bull Racing,1845.0,-0.43300000000000693,0.0030000000000001137,-1.6330000000000002,1.0,1.0,2,2,1,0,-2.0,2,1
2023,11,PER,Red Bull Racing,1680.0,0.43300000000000693,0.43600000000000705,-1.6330000000000002,15.0,14.0,9,9,3,0,2.0,9,3
2023,11,NOR,McLaren,1576.5,-0.21099999999999852,0.08500000000000796,0.898666666666666,2.0,4.333333333333333,3,3,2,0,-3.0,3,2
2023,11,PIA,McLaren,1473.0,0.21099999999999852,0.2960000000000065,0.898666666666666,3.0,8.333333333333334,4,4,5,0,3.0,4,5
2023,11,ZHO,Alfa Romeo,1267.5,-0.06300000000000239,0.362000000000009,0.10999999999999943,17.0,18.0,5,5,16,1,4.0,5,16
2023,11,BOT,Alfa Romeo,1378.5,0.06300000000000239,0.42500000000001137,0.10999999999999943,15.0,14.666666666666666,7,7,12,1,-4.0,7,12
2023,11,LEC,Ferrari,1792.5,-0.7109999999999985,0.3830000000000098,-1.5930000000000082,4.0,5.666666666666667,6,6,7,0,-1.0,6,7
2023,11,SAI,Ferrari,1788.0,0.7109999999999985,1.0940000000000083,-1.5930000000000082,5.0,5.333333333333333,11,11,8,0,1.0,11,8
2023,11,ALO,Aston Martin,1632.0,-1.1090000000000089,0.42600000000000193,-0.977666666666669,9.0,6.333333333333333,8,8,9,0,-1.0,8,9
2023,11,STR,Aston Martin,1327.5,1.1090000000000089,1.5350000000000108,-0.977666666666669,12.0,10.333333333333334,14,14,10,1,1.0,14,10
2023,11,HUL,Haas F1 Team,1467.0,-2.019999999999996,0.5770000000000124,-0.4350000000000023,11.0,7.0,10,10,14,1,-3.0,10,14
2023,11,MAG,Haas F1 Team,1344.0,2.019999999999996,2.5970000000000084,-0.4350000000000023,19.0,17.333333333333332,19,19,17,1,3.0,19,17
2023,11,OCO,Alpine,1509.0,-0.3760000000000048,1.2319999999999993,-0.40800000000000597,13.0,10.333333333333334,12,12,19,1,-1.0,12,19
2023,11,GAS,Alpine,1402.5,0.3760000000000048,1.608000000000004,-0.40800000000000597,10.0,12.0,15,15,20,1,1.0,15,20
2023,11,RIC,AlphaTauri,1429.5,-0.9170000000000016,1.3930000000000007,0.5286666666666662,10.0,11.666666666666666,13,13,13,1,-2.0,13,13
2023,11,TSU,AlphaTauri,1333.5,0.9170000000000016,2.3100000000000023,0.5286666666666662,16.0,16.0,17,17,15,1,2.0,17,15
2023,11,ALB,Williams,1305.0,-0.33100000000000307,2.308000000000007,-1.6303333333333399,8.0,9.333333333333334,16,16,11,1,-7.0,16,11
2023,11,SAR,Williams,1386.0,0.33100000000000307,2.63900000000001,-1.6303333333333399,14.0,17.0,20,20,18,1,7.0,20,18
2023,12,VER,Red Bull Racing,1857.0,-0.8769999999999953,0.0,0.001000000000000038,2.0,1.3333333333333333,1,6,1,0,-1.0,1,1
2023,12,PER,Red Bull Racing,1681.5,0.8769999999999953,0.8769999999999953,0.001000000000000038,9.0,13.0,3,2,2,0,1.0,3,2
2023,12,LEC,Ferrari,1798.5,-0.16400000000000148,0.8199999999999932,0.2823333333333314,6.0,4.0,2,1,3,0,-16.0,2,3
2023,12,SAI,Ferrari,1786.5,0.16400000000000148,0.9839999999999947,0.2823333333333314,11.0,6.333333333333333,5,4,19,1,16.0,5,19
2023,12,HAM,Mercedes,1687.5,-0.7180000000000035,0.9189999999999969,0.2876666666666665,1.0,4.333333333333333,4,3,4,0,-2.0,4,4
2023,12,RUS,Mercedes,1648.5,0.7180000000000035,1.6370000000000005,0.2876666666666665,18.0,11.666666666666666,8,8,6,0,2.0,8,6
2023,12,PIA,McLaren,1482.0,-0.30400000000000205,1.1969999999999885,0.19766666666666785,4.0,6.666666666666667,6,5,20,1,13.0,6,20
2023,12,NOR,McLaren,1587.0,0.30400000000000205,1.5009999999999906,0.19766666666666785,3.0,3.0,7,7,7,0,-13.0,7,7
2023,12,ALO,Aston Martin,1635.0,-0.9979999999999905,1.6749999999999972,0.6223333333333348,8.0,8.0,9,9,5,0,-4.0,9,5
2023,12,STR,Aston Martin,1321.5,0.9979999999999905,2.6729999999999876,0.6223333333333348,14.0,10.666666666666666,10,10,9,0,4.0,10,9
2023,12,TSU,AlphaTauri,1323.0,-9.01100000000001,6.97999999999999,2.030333333333336,17.0,16.333333333333332,11,11,10,0,-6.0,11,10
2023,12,RIC,AlphaTauri,1425.0,9.01100000000001,15.991,2.030333333333336,13.0,12.333333333333334,19,19,16,0,6.0,19,16
2023,12,GAS,Alpine,1395.0,-2.7009999999999934,7.503,0.99333333333333,15.0,11.333333333333334,12,12,11,0,3.0,12,11
2023,12,OCO,Alpine,1506.0,2.7009999999999934,10.203999999999994,0.99333333333333,12.0,12.333333333333334,15,14,8,0,-3.0,15,8
2023,12,MAG,Haas F1 Team,1330.5,-9.006,7.99199999999999,1.1506666666666707,19.0,19.0,13,16,15,0,-3.0,13,15
2023,12,HUL,Haas F1 Team,1467.0,9.006,16.99799999999999,1.1506666666666707,10.0,9.666666666666666,20,20,18,0,3.0,20,18
2023,12,BOT,Alfa Romeo,1383.0,-6.137999999999991,8.525999999999996,1.5763333333333378,7.0,12.0,14,13,12,0,-1.0,14,12
2023,12,ZHO,Alfa Romeo,1275.0,6.137999999999991,14.663999999999987,1.5763333333333378,5.0,13.0,17,17,13,0,1.0,17,13
2023,12,ALB,Williams,1296.0,-1.2210000000000036,14.145999999999987,1.5166666666666657,16.0,11.333333333333334,16,15,14,0,-3.0,16,14
2023,12,SAR,Williams,1371.0,1.2210000000000036,15.36699999999999,1.5166666666666657,20.0,17.333333333333332,18,18,17,0,3.0,18,17
2023,13,VER,Red Bull Racing,1870.5,-1.3130000000000024,0.0,0.001000000000000038,1.0,1.3333333333333333,1,1,1,0,-3.0,1,1
2023,13,PER,Red Bull Racing,1692.0,1.3130000000000024,1.3130000000000024,0.001000000000000038,3.0,9.0,7,7,4,0,3.0,7,4
2023,13,NOR,McLaren,1591.5,-0.8340000000000032,0.5370000000000061,0.5076666666666654,7.0,4.0,2,2,7,0,-2.0,2,7
2023,13,PIA,McLaren,1488.0,0.8340000000000032,1.3710000000000093,0.5076666666666654,6.0,4.333333333333333,8,8,9,0,2.0,8,9
2023,13,RUS,Mercedes,1651.5,-8.857,0.7270000000000039,0.4513333333333331,8.0,10.666666666666666,3,3,17,0,11.0,3,17
2023,13,HAM,Mercedes,1696.5,8.857,9.584000000000003,0.4513333333333331,4.0,4.0,13,13,6,0,-11.0,13,6
2023,13,ALB,Williams,1287.0,-5.329000000000008,0.8520000000000039,5.754666666666665,16.0,13.333333333333334,4,4,8,0,-12.0,4,8
2023,13,SAR,Williams,1359.0,5.329000000000008,6.181000000000012,5.754666666666665,18.0,17.333333333333332,10,10,20,1,12.0,10,20
2023,13,ALO,Aston Martin,1636.5,-8.614999999999995,0.9390000000000072,1.0133333333333354,9.0,8.666666666666666,5,5,2,0,-9.0,5,2
2023,13,STR,Aston Martin,1321.5,8.614999999999995,9.554000000000002,1.0133333333333354,10.0,12.0,11,11,11,0,9.0,11,11
2023,13,SAI,Ferrari,1794.0,-0.9110000000000014,1.1870000000000118,0.5396666666666666,5.0,7.0,6,6,5,0,-14.0,6,5
2023,13,LEC,Ferrari,1810.5,0.9110000000000014,2.098000000000013,0.5396666666666666,2.0,4.0,9,9,19,1,14.0,9,19
2023,13,GAS,Alpine,1392.0,-1.9819999999999993,9.561000000000007,3.2346666666666644,12.0,12.333333333333334,12,12,3,0,-7.0,12,3
2023,13,OCO,Alpine,1498.5,1.9819999999999993,11.543000000000006,3.2346666666666644,15.0,13.333333333333334,17,16,10,0,7.0,17,10
2023,13,TSU,AlphaTauri,1321.5,-3.1899999999999977,9.663000000000011,3.8926666666666656,11.0,14.666666666666666,14,17,15,0,2.0,14,15
2023,13,LAW,AlphaTauri,1500.0,3.1899999999999977,12.853000000000009,3.8926666666666656,11.0,11.0,20,19,13,0,-2.0,20,13
2023,13,HUL,Haas F1 Team,1452.0,-1.941999999999993,9.683000000000007,3.5816666666666683,20.0,13.666666666666666,15,14,12,0,-4.0,15,12
2023,13,MAG,Haas F1 Team,1326.0,1.941999999999993,11.625,3.5816666666666683,13.0,17.0,18,0,16,0,4.0,18,16
2023,13,ZHO,Alfa Romeo,1264.5,-0.19300000000001205,11.5,3.9886666666666692,17.0,13.0,16,15,18,1,4.0,16,18
2023,13,BOT,Alfa Romeo,1377.0,0.19300000000001205,11.693000000000012,3.9886666666666692,14.0,12.0,19,18,14,0,-4.0,19,14
2023,14,SAI,Ferrari,1800.0,-0.06700000000000728,0.0,0.7966666666666716,6.0,7.333333333333333,1,1,3,0,-1.0,1,3
2023,14,LEC,Ferrari,1812.0,0.06700000000000728,0.06700000000000728,0.7966666666666716,9.0,5.666666666666667,3,3,4,0,1.0,3,4
2023,14,VER,Red Bull Racing,1884.0,-0.3810000000000002,0.01300000000000523,0.001000000000000038,1.0,1.3333333333333333,2,2,1,0,-1.0,2,1
2023,14,PER,Red Bull Racing,1696.5,0.3810000000000002,0.39400000000000546,0.001000000000000038,7.0,6.333333333333333,5,5,2,0,1.0,5,2
2023,14,RUS,Mercedes,1662.0,-0.1489999999999867,0.37700000000000955,0.548666666666667,3.0,9.666666666666666,4,4,5,0,-1.0,4,5
2023,14,HAM,Mercedes,1692.0,0.1489999999999867,0.5259999999999962,0.548666666666667,13.0,6.0,8,8,6,0,1.0,8,6
2023,14,ALB,Williams,1296.0,-1.1839999999999975,0.4660000000000082,5.7686666666666655,4.0,12.0,6,6,7,0,-6.0,6,7
2023,14,SAR,Williams,1359.0,1.1839999999999975,1.6500000000000057,5.7686666666666655,10.0,16.0,15,15,13,0,6.0,15,13
2023,14,PIA,McLaren,1491.0,-0.19400000000000261,0.49099999999999966,0.6063333333333342,8.0,6.0,7,7,12,0,4.0,7,12
2023,14,NOR,McLaren,1603.5,0.19400000000000261,0.6850000000000023,0.6063333333333342,2.0,4.0,9,9,8,0,-4.0,9,8
2023,14,ALO,Aston Martin,1644.0,-1.4429999999999978,1.1230000000000047,1.0133333333333354,5.0,7.333333333333333,10,10,9,0,-7.0,10,9
2023,14,STR,Aston Martin,1320.0,1.4429999999999978,2.5660000000000025,1.0133333333333354,11.0,11.666666666666666,20,20,16,0,7.0,20,16
2023,14,TSU,AlphaTauri,1315.5,-0.16400000000000148,1.2999999999999972,6.0120000000000005,14.0,14.0,11,11,20,1,9.0,11,20
2023,14,LAW,AlphaTauri,1485.0,0.16400000000000148,1.4639999999999986,6.0120000000000005,20.0,20.0,12,12,11,0,-9.0,12,11
2023,14,HUL,Haas F1 Team,1444.5,-0.8160000000000025,1.4819999999999993,6.084000000000003,15.0,15.0,13,13,17,1,-1.0,13,17
2023,14,MAG,Haas F1 Team,1314.0,0.8160000000000025,2.298000000000002,6.084000000000003,18.0,16.666666666666668,19,19,18,1,1.0,19,18
2023,14,BOT,Alfa Romeo,1363.5,-0.45000000000000284,1.6460000000000008,6.796000000000002,19.0,13.333333333333334,14,14,10,0,-4.0,14,10
2023,14,ZHO,Alfa Romeo,1255.5,0.45000000000000284,2.0960000000000036,6.796000000000002,16.0,12.666666666666666,16,16,14,0,4.0,16,14
2023,14,GAS,Alpine,1389.0,-0.0030000000000001137,2.2510000000000048,6.098666666666669,12.0,13.0,17,17,15,0,-4.0,17,15
2023,14,OCO,Alpine,1488.0,0.0030000000000001137,2.254000000000005,6.098666666666669,17.0,14.666666666666666,18,18,19,1,4.0,18,19
2023,15,SAI,Ferrari,1813.5,-0.07900000000000773,0.0,0.6690000000000017,1.0,4.0,1,1,1,0,-3.0,1,1
2023,15,LEC,Ferrari,1822.5,0.07900000000000773,0.07900000000000773,0.6690000000000017,3.0,4.666666666666667,3,3,4,0,3.0,3,4
2023,15,RUS,Mercedes,1671.0,-0.42900000000000205,0.07200000000000273,0.6743333333333368,4.0,5.0,2,2,16,1,13.0,2,16
2023,15,HAM,Mercedes,1695.0,0.42900000000000205,0.5010000000000048,0.6743333333333368,8.0,8.333333333333334,5,5,3,0,-13.0,5,3
2023,15,NOR,McLaren,1605.0,-1.632000000000005,0.28600000000000136,0.7416666666666648,9.0,6.0,4,4,2,0,-5.0,4,2
2023,15,PIA,McLaren,1495.5,1.632000000000005,1.9180000000000064,0.7416666666666648,7.0,7.0,17,17,7,0,5.0,17,7
2023,15,MAG,Haas F1 Team,1300.5,-0.2330000000000041,0.5910000000000082,6.3856666666666655,19.0,16.666666666666668,6,6,10,0,-3.0,6,10
2023,15,HUL,Haas F1 Team,1440.0,0.2330000000000041,0.8240000000000123,6.3856666666666655,13.0,16.0,9,9,13,0,3.0,9,13
2023,15,ALO,Aston Martin,1644.0,-1.7820000000000107,0.6310000000000002,1.2456666666666696,10.0,8.0,7,7,15,0,-84.0,7,15
2023,15,STR,Aston Martin,1305.0,1.7820000000000107,2.413000000000011,1.2456666666666696,20.0,13.666666666666666,20,20,99,1,84.0,20,99
2023,15,OCO,Alpine,1476.0,-0.6009999999999991,0.6890000000000072,6.438333333333337,18.0,16.666666666666668,8,8,18,1,12.0,8,18
2023,15,GAS,Alpine,1378.5,0.6009999999999991,1.2900000000000063,6.438333333333337,17.0,13.666666666666666,12,12,6,0,-12.0,12,6
2023,15,LAW,AlphaTauri,1482.0,0.277000000000001,1.284000000000006,5.980999999999999,12.0,16.0,10,10,9,0,-10.0,10,9
2023,15,TSU,AlphaTauri,1314.0,-0.277000000000001,1.007000000000005,5.980999999999999,11.0,12.0,15,15,19,1,10.0,15,19
2023,15,VER,Red Bull Racing,1896.0,-0.13700000000000045,1.1890000000000072,0.0043333333333350765,2.0,1.3333333333333333,11,11,5,0,-3.0,11,5
2023,15,PER,Red Bull Racing,1704.0,0.13700000000000045,1.3260000000000076,0.0043333333333350765,5.0,5.0,13,13,8,0,3.0,13,8
2023,15,ALB,Williams,1302.0,0.46699999999999875,2.7349999999999994,5.1546666666666665,6.0,8.666666666666666,14,14,11,0,-3.0,14,11
2023,15,SAR,Williams,1351.5,-0.46699999999999875,2.2680000000000007,5.1546666666666665,15.0,14.333333333333334,18,18,14,0,3.0,18,14
2023,15,BOT,Alfa Romeo,1357.5,-0.44899999999999807,1.8250000000000028,7.223999999999999,14.0,15.666666666666666,16,16,17,1,5.0,16,17
2023,15,ZHO,Alfa Romeo,1246.5,0.44899999999999807,2.274000000000001,7.223999999999999,16.0,16.333333333333332,19,19,12,0,-5.0,19,12
2023,16,VER,Red Bull Racing,1894.5,-0.7730000000000103,0.0,0.4006666666666708,11.0,4.666666666666667,1,1,1,0,-18.0,1,1
2023,16,PER,Red Bull Racing,1699.5,0.7730000000000103,0.7730000000000103,0.4006666666666708,13.0,8.333333333333334,5,5,19,1,18.0,5,19
2023,16,PIA,McLaren,1485.0,-0.03499999999999659,0.5810000000000031,0.4380000000000024,17.0,10.666666666666666,2,2,3,0,1.0,2,3
2023,16,NOR,McLaren,1614.0,0.03499999999999659,0.6159999999999997,0.4380000000000024,4.0,5.0,3,3,2,0,-1.0,3,2
2023,16,LEC,Ferrari,1833.0,-0.3079999999999927,0.6650000000000063,0.3956666666666706,3.0,5.0,4,4,4,0,-2.0,4,4
2023,16,SAI,Ferrari,1827.0,0.3079999999999927,0.972999999999999,0.3956666666666706,1.0,2.6666666666666665,6,6,6,0,2.0,6,6
2023,16,HAM,Mercedes,1702.5,-0.31099999999999284,1.031000000000006,0.3920000000000054,5.0,8.666666666666666,7,7,5,0,-2.0,7,5
2023,16,RUS,Mercedes,1683.0,0.31099999999999284,1.3419999999999987,0.3920000000000054,2.0,3.0,8,8,7,0,2.0,8,7
2023,16,TSU,AlphaTauri,1306.5,-0.2049999999999983,1.426000000000002,3.990000000000004,15.0,13.333333333333334,9,9,12,1,1.0,9,12
2023,16,LAW,AlphaTauri,1482.0,0.2049999999999983,1.6310000000000002,3.990000000000004,10.0,14.0,11,11,11,1,-1.0,11,11
2023,16,ALO,Aston Martin,1648.5,-0.6209999999999951,1.683000000000007,0.8976666666666707,7.0,7.333333333333333,10,10,8,0,-10.0,10,8
2023,16,STR,Aston Martin,1290.0,0.6209999999999951,2.304000000000002,0.8976666666666707,20.0,17.0,17,17,18,1,10.0,17,18
2023,16,GAS,Alpine,1375.5,-0.07699999999999818,1.632000000000005,4.167000000000006,12.0,13.666666666666666,12,12,10,0,1.0,12,10
2023,16,OCO,Alpine,1479.0,0.07699999999999818,1.7090000000000032,4.167000000000006,8.0,14.333333333333334,14,14,9,0,-1.0,14,9
2023,16,ALB,Williams,1296.0,0.0,1.6600000000000108,1.1953333333333376,14.0,8.0,13,13,16,1,-1.0,13,16
2023,16,MAG,Haas F1 Team,1306.5,-0.6340000000000003,1.788000000000011,3.9186666666666716,6.0,14.333333333333334,15,15,15,1,1.0,15,15
2023,16,HUL,Haas F1 Team,1441.5,0.6340000000000003,2.4220000000000113,3.9186666666666716,9.0,12.333333333333334,18,18,14,1,-1.0,18,14
2023,16,BOT,Alfa Romeo,1348.5,-0.34899999999998954,2.1720000000000113,4.990333333333335,16.0,16.333333333333332,16,16,20,1,7.0,16,20
2023,16,ZHO,Alfa Romeo,1233.0,0.34899999999998954,2.521000000000001,4.990333333333335,19.0,17.0,19,19,13,1,-7.0,19,13
2023,17,VER,Red Bull Racing,1908.0,-1.6839999999999975,0.0,0.4006666666666708,1.0,4.666666666666667,1,1,1,0,-9.0,1,1
2023,17,PER,Red Bull Racing,1707.0,1.6839999999999975,1.6839999999999975,0.4006666666666708,5.0,7.666666666666667,13,20,10,0,9.0,13,10
2023,17,RUS,Mercedes,1686.0,-0.08600000000001273,0.4409999999999883,0.4933333333333394,8.0,4.666666666666667,2,2,4,0,-15.0,2,4
2023,17,HAM,Mercedes,1707.0,0.08600000000001273,0.527000000000001,0.4933333333333394,7.0,6.666666666666667,3,3,19,1,15.0,3,19
2023,17,ALO,Aston Martin,1648.5,-1.975999999999999,0.590999999999994,1.1456666666666706,10.0,9.0,4,4,6,0,-5.0,4,6
2023,17,STR,Aston Martin,1279.5,1.975999999999999,2.566999999999993,1.1456666666666706,17.0,19.0,17,16,11,0,5.0,17,11
2023,17,LEC,Ferrari,1842.0,-0.9039999999999964,0.6460000000000008,0.22166666666666876,4.0,3.3333333333333335,5,5,5,0,-15.0,5,5
2023,17,SAI,Ferrari,1833.0,0.9039999999999964,1.5499999999999972,0.22166666666666876,6.0,2.6666666666666665,12,12,20,1,15.0,12,20
2023,17,PIA,McLaren,1497.0,-0.14499999999999602,0.7620000000000005,0.45266666666666805,2.0,8.666666666666666,6,6,2,0,-1.0,6,2
2023,17,NOR,McLaren,1624.5,0.14499999999999602,0.9069999999999965,0.45266666666666805,3.0,5.333333333333333,10,10,3,0,1.0,10,3
2023,17,GAS,Alpine,1372.5,-0.21000000000000796,0.7749999999999915,1.5240000000000056,12.0,13.666666666666666,7,7,12,0,5.0,7,12
2023,17,OCO,Alpine,1473.0,0.21000000000000796,0.9849999999999994,1.5240000000000056,14.0,13.333333333333334,8,8,7,0,-5.0,8,7
2023,17,BOT,Alfa Romeo,1339.5,-2.3739999999999952,1.2800000000000011,1.881000000000005,16.0,15.333333333333334,9,9,8,0,-1.0,9,8
2023,17,ZHO,Alfa Romeo,1219.5,2.3739999999999952,3.6539999999999964,1.881000000000005,19.0,18.0,20,19,9,0,1.0,20,9
2023,17,TSU,AlphaTauri,1308.0,-1.3340000000000032,1.5229999999999961,1.2443333333333346,9.0,11.666666666666666,11,11,15,1,-2.0,11,15
2023,17,LAW,AlphaTauri,1480.5,1.3340000000000032,2.8569999999999993,1.2443333333333346,11.0,11.0,18,17,17,1,2.0,18,17
2023,17,ALB,Williams,1291.5,-0.5030000000000001,1.9289999999999878,1.4646666666666732,13.0,11.0,14,13,13,0,-5.0,14,13
2023,17,SAR,Williams,1339.5,0.5030000000000001,2.431999999999988,1.4646666666666732,18.0,14.333333333333334,16,15,18,1,5.0,16,18
2023,17,HUL,Haas F1 Team,1429.5,-1.2630000000000052,2.0049999999999955,1.2870000000000061,18.0,13.333333333333334,15,14,16,1,2.0,15,16
2023,17,MAG,Haas F1 Team,1299.0,1.2630000000000052,3.2680000000000007,1.2870000000000061,15.0,13.333333333333334,19,18,14,1,-2.0,19,14
2023,18,LEC,Ferrari,1849.5,-0.2219999999999942,0.0,0.43700000000000233,5.0,4.0,1,1,20,1,17.0,1,20
2023,18,SAI,Ferrari,1830.0,0.2219999999999942,0.2219999999999942,0.43700000000000233,12.0,6.333333333333333,4,4,3,0,-17.0,4,3
2023,18,NOR,McLaren,1624.5,-0.6140000000000043,0.12999999999999545,0.5430000000000016,10.0,5.666666666666667,2,2,2,0,-15.0,2,2
2023,18,PIA,McLaren,1503.0,0.6140000000000043,0.7439999999999998,0.5430000000000016,6.0,8.333333333333334,10,10,17,1,15.0,10,17
2023,18,HAM,Mercedes,1717.5,-0.21699999999999875,0.1389999999999958,0.5146666666666656,3.0,5.0,3,3,19,1,14.0,3,19
2023,18,RUS,Mercedes,1698.0,0.21699999999999875,0.35599999999999454,0.5146666666666656,2.0,4.0,5,5,5,0,-14.0,5,5
2023,18,VER,Red Bull Racing,1921.5,-0.09199999999999875,0.3580000000000041,0.3963333333333357,1.0,4.333333333333333,6,6,1,0,-3.0,6,1
2023,18,PER,Red Bull Racing,1702.5,0.09199999999999875,0.45000000000000284,0.3963333333333357,13.0,10.333333333333334,9,9,4,0,3.0,9,4
2023,18,GAS,Alpine,1377.0,-0.06499999999999773,0.36599999999999966,1.0320000000000011,7.0,10.333333333333334,7,7,6,0,-12.0,7,6
2023,18,OCO,Alpine,1476.0,0.06499999999999773,0.4309999999999974,1.0320000000000011,8.0,10.0,8,8,18,1,12.0,8,18
2023,18,TSU,AlphaTauri,1306.5,-0.277000000000001,0.9740000000000038,1.3186666666666678,11.0,11.666666666666666,11,11,8,0,-7.0,11,8
2023,18,RIC,AlphaTauri,1411.5,0.277000000000001,1.2510000000000048,1.3186666666666678,19.0,14.0,15,14,15,1,7.0,15,15
2023,18,ZHO,Alfa Romeo,1204.5,-0.1600000000000108,0.9749999999999943,1.759000000000005,20.0,19.333333333333332,12,12,13,1,1.0,12,13
2023,18,BOT,Alfa Romeo,1341.0,0.1600000000000108,1.1350000000000051,1.759000000000005,9.0,13.666666666666666,13,13,12,0,-1.0,13,12
2023,18,MAG,Haas F1 Team,1285.5,-0.355000000000004,1.1569999999999965,1.4613333333333383,19.0,13.333333333333334,14,17,14,1,3.0,14,14
2023,18,HUL,Haas F1 Team,1422.0,0.355000000000004,1.5120000000000005,1.4613333333333383,15.0,14.0,16,18,11,0,-3.0,16,11
2023,18,ALO,Aston Martin,1657.5,-0.32099999999999795,1.5450000000000017,0.9683333333333337,4.0,7.0,17,19,16,1,9.0,17,16
2023,18,STR,Aston Martin,1269.0,0.32099999999999795,1.8659999999999997,0.9683333333333337,17.0,18.0,19,20,7,0,-9.0,19,7
2023,18,ALB,Williams,1285.5,-0.5120000000000005,1.5919999999999987,1.952333333333333,14.0,13.666666666666666,18,15,9,0,-1.0,18,9
2023,18,SAR,Williams,1330.5,0.5120000000000005,2.103999999999999,1.952333333333333,16.0,16.333333333333332,20,16,10,0,1.0,20,10
2023,19,LEC,Ferrari,1863.0,-0.06700000000000728,0.0,0.43700000000000233,1.0,3.3333333333333335,1,1,3,0,-1.0,1,3
2023,19,SAI,Ferrari,1839.0,0.06700000000000728,0.06700000000000728,0.43700000000000233,4.0,7.333333333333333,2,2,4,0,1.0,2,4
2023,19,VER,Red Bull Racing,1927.5,-0.1599999999999966,0.09700000000000841,0.11933333333333469,6.0,2.6666666666666665,3,3,1,0,-19.0,3,1
2023,19,PER,Red Bull Racing,1704.0,0.1599999999999966,0.257000000000005,0.11933333333333469,9.0,9.0,5,5,20,1,19.0,5,20
2023,19,RIC,AlphaTauri,1404.0,-1.5079999999999956,0.21600000000000819,1.3076666666666672,15.0,15.666666666666666,4,4,7,0,-5.0,4,7
2023,19,TSU,AlphaTauri,1305.0,1.5079999999999956,1.7240000000000038,1.3076666666666672,11.0,10.333333333333334,15,18,12,0,5.0,15,12
2023,19,HAM,Mercedes,1728.0,-0.22000000000001307,0.2879999999999967,0.5369999999999967,3.0,4.333333333333333,6,6,2,0,-4.0,6,2
2023,19,RUS,Mercedes,1705.5,0.22000000000001307,0.5080000000000098,0.5369999999999967,5.0,5.0,8,8,6,0,4.0,8,6
2023,19,PIA,McLaren,1503.0,-3.9309999999999974,0.45700000000000784,0.49099999999999966,10.0,6.0,7,7,8,0,3.0,7,8
2023,19,NOR,McLaren,1636.5,3.9309999999999974,4.388000000000005,0.49099999999999966,2.0,5.0,19,17,5,0,-3.0,19,5
2023,19,BOT,Alfa Romeo,1336.5,-0.018000000000000682,0.8659999999999997,1.475666666666669,13.0,12.666666666666666,9,9,15,0,1.0,9,15
2023,19,ZHO,Alfa Romeo,1201.5,0.018000000000000682,0.8840000000000003,1.475666666666669,12.0,17.0,10,10,14,0,-1.0,10,14
2023,19,GAS,Alpine,1381.5,-0.5589999999999975,1.355000000000004,0.924333333333332,7.0,8.666666666666666,11,11,11,0,1.0,11,11
2023,19,OCO,Alpine,1479.0,0.5589999999999975,1.9140000000000015,0.924333333333332,8.0,10.0,16,15,10,0,-1.0,16,10
2023,19,HUL,Haas F1 Team,1413.0,-0.6389999999999958,1.358000000000004,1.650000000000001,16.0,16.333333333333332,12,12,13,0,-6.0,12,13
2023,19,MAG,Haas F1 Team,1279.5,0.6389999999999958,1.9969999999999999,1.650000000000001,14.0,16.0,17,16,19,1,6.0,17,19
2023,19,ALO,Aston Martin,1647.0,-0.4890000000000043,1.5720000000000027,1.2730000000000008,17.0,10.333333333333334,13,13,18,1,1.0,13,18
2023,19,STR,Aston Martin,1255.5,0.4890000000000043,2.061000000000007,1.2730000000000008,19.0,17.666666666666668,18,0,17,1,-1.0,18,17
2023,19,ALB,Williams,1273.5,0.0,1.9810000000000088,1.7269999999999992,18.0,15.0,14,14,9,0,-7.0,14,9
2023,20,VER,Red Bull Racing,1938.0,-1.593999999999994,0.0,0.15166666666667084,3.0,3.3333333333333335,1,1,1,0,-3.0,1,1
2023,20,PER,Red Bull Racing,1711.5,1.593999999999994,1.593999999999994,0.15166666666667084,5.0,9.0,9,9,4,0,3.0,9,4
2023,20,LEC,Ferrari,1876.5,-0.9680000000000035,0.29399999999999693,0.2153333333333336,1.0,2.3333333333333335,2,2,20,1,14.0,2,20
2023,20,SAI,Ferrari,1851.0,0.9680000000000035,1.2620000000000005,0.2153333333333336,2.0,6.0,8,7,6,0,-14.0,8,6
2023,20,STR,Aston Martin,1243.5,-0.043000000000006366,0.6169999999999902,1.2359999999999995,18.0,18.0,3,3,5,0,2.0,3,5
